( Made using CamBam - http://www.cambam.co.uk )
( boomerangv3 1/14/2010 9:29:11 PM )
( T0 : 0.25 )
G20 G90 G64 G40
G0 Z25.4
( T0 : 0.25 )
T0 M6
( Profile1 )
G17
M3 S0
G0 X289.96132 Y13.035279999999998
G1 F762 Z0
G3 F7620 X330.1365 Y43.535599999999995 I0.4346 J1.0696
G0 Z25.4
G0 X11.58748 Y44.29506
G1 F762 Z0
G3 F7620 X51.25719999999999 Y13.6652 I1.0998 J-0.1898
( 3DSurface1 )
S0
G0 Z25.4
G0 X2.79654 Y31.000699999999995
G1 F762 Z-0.0635
G1 F7620 Y36.70808
G1 F762 X4.70154 Y38.7985
G1 F7620 Y38.2016
G1 Y37.5666 Z0.0254
G1 Y35.66159999999999 Z0.84582
G1 Y30.581599999999998
G1 Y29.9466 Z-0.0635
G1 Y29.415739999999996
G1 F762 X6.60654 Y27.84856
G1 F7620 Y28.041600000000003
G1 Y28.676599999999997 Z2.4714199999999997
G1 Y33.7566
G1 Y35.026599999999995 Z2.00914
G1 Y35.66159999999999 Z1.74752
G1 Y39.4716 Z0.10414
G1 Y40.1066 Z-0.0635
G1 Y40.88891999999999
G1 F762 X8.51154 Y42.97933999999999
G1 F7620 Y42.011599999999994
G1 Y41.376599999999996 Z0.18288
G1 Y37.5666 Z1.82626
G1 Y36.931599999999996 Z2.0751799999999996
G1 Y33.1216 Z3.46202
G1 Y32.486599999999996 Z3.68554
G1 Y27.406599999999997
G1 Y26.7716 Z-0.0635
G1 Y26.294079999999997
G1 F762 X10.41654 Y24.757379999999998
G1 F7620 Y25.5016
G1 Y26.136599999999998 Z4.68376
G1 Y31.2166
G1 Y34.391600000000004 Z3.7388799999999995
G1 Y35.026599999999995 Z3.5306
G1 Y38.8366 Z2.14376
G1 Y39.4716 Z1.9075399999999998
G1 Y43.2816 Z0.26415999999999995
G1 Y43.9166 Z-0.01016
G1 Y44.5516 Z-0.0635
G1 Y45.06722
G1 F762 X12.321539999999999 Y47.15764
G1 F7620 Y46.456599999999995
G1 Y45.8216 Z0.06858
G1 Y45.1866 Z0.3429
G1 Y42.011599999999994 Z1.71196
G1 Y41.376599999999996 Z1.9786599999999999
G1 Y40.7416 Z2.2097999999999995
G1 Y36.931599999999996 Z3.59664
G1 Y36.2966 Z3.79476
G1 Y32.486599999999996 Z4.9276
G1 Y31.851599999999998 Z5.097779999999999
G1 Y29.311599999999995 Z5.68706
G1 Y24.231599999999997
G1 Y23.5966 Z-0.0635
G1 Y23.233379999999997
G1 F762 X14.22654 Y21.72208
G1 F7620 Y22.3266
G1 Y22.9616 Z6.367779999999999
G1 Y28.041600000000003
G1 Y29.311599999999995 Z6.15696
G1 Y29.9466 Z6.02234
G1 Y33.7566 Z5.14096
G1 Y34.391600000000004 Z4.98348
G1 Y38.2016 Z3.8480999999999996
G1 Y38.8366 Z3.6601399999999997
G1 Y39.4716 Z3.4340799999999994
G1 Y42.6466 Z2.27838
G1 Y43.2816 Z2.04724
G1 Y43.9166 Z1.7932399999999997
G1 Y47.0916 Z0.42417999999999995
G1 Y47.7266 Z0.14986
G1 Y48.361599999999996 Z-0.0635
G1 Y49.24806
G1 F762 X16.131539999999998 Y51.33848
G1 F7620 Y50.901599999999995
G1 Y50.2666 Z-0.04572
G1 Y49.6316 Z0.22859999999999997
G1 Y48.9966 Z0.50292
G1 Y45.8216 Z1.87198
G1 Y45.1866 Z2.1132799999999996
G1 Y44.5516 Z2.3444199999999995
G1 Y41.376599999999996 Z3.50012
G1 Y40.7416 Z3.7160200000000003
G1 Y40.1066 Z3.90398
G1 Y36.931599999999996 Z4.848859999999999
G1 Y36.2966 Z5.03682
G1 Y35.66159999999999 Z5.18414
G1 Y31.851599999999998 Z6.06552
G1 Y31.2166 Z6.18744
G1 Y27.406599999999997 Z6.8199
G1 Y26.7716 Z6.91642
G1 Y26.136599999999998 Z6.982459999999999
G1 Y21.0566
G1 Y20.4216 Z-0.0635
G1 Y20.228559999999998
G1 F762 X18.03654 Y18.745199999999997
G1 F7620 Y19.1516
G1 Y19.7866 Z7.3202799999999995
G1 Y24.8666
G1 Y28.676599999999997 Z6.9367399999999995
G1 Y29.311599999999995 Z6.8503799999999995
G1 Y33.1216 Z6.2179199999999994
G1 Y33.7566 Z6.1087
G1 Y37.5666 Z5.22732
G1 Y38.2016 Z5.08
G1 Y38.8366 Z4.904739999999999
G1 Y42.011599999999994 Z3.95986
G1 Y42.6466 Z3.76936
G1 Y43.2816 Z3.5687
G1 Y46.456599999999995 Z2.4104599999999996
G1 Y47.0916 Z2.1793199999999997
G1 Y47.7266 Z1.9507199999999998
G1 Y48.361599999999996 Z1.6764
G1 Y50.901599999999995 Z0.58166
G1 Y51.53659999999999 Z0.30733999999999995
G1 Y52.17159999999999 Z0.035559999999999994
G1 Y52.8066 Z-0.0635
G1 Y53.42636
G1 F762 X19.94154 Y55.516780000000004
G1 F7620 Y54.7116
G1 Y54.0766 Z0.11429999999999998
G1 Y53.4416 Z0.38861999999999997
G1 Y52.8066 Z0.66294
G1 Y50.2666 Z1.75768
G1 Y49.6316 Z2.0167599999999997
G1 Y48.9966 Z2.2478999999999996
G1 Y48.361599999999996 Z2.47904
G1 Y45.1866 Z3.63474
G1 Y44.5516 Z3.82524
G1 Y43.9166 Z4.013199999999999
G1 Y40.7416 Z4.95808
G1 Y40.1066 Z5.12318
G1 Y39.4716 Z5.2679599999999995
G1 Y36.2966 Z6.00456
G1 Y35.66159999999999 Z6.141719999999999
G1 Y35.026599999999995 Z6.248399999999999
G1 Y31.2166 Z6.880859999999999
G1 Y30.581599999999998 Z6.95452
G1 Y26.7716 Z7.33806
G1 Y26.136599999999998 Z7.391399999999999
G1 Y23.5966 Z7.482839999999999
G1 Y18.516599999999997
G1 Y17.8816 Z-0.0635
G1 Y17.277079999999998
G1 F762 X21.846539999999997 Y15.8242
G1 F7620 Y15.9766
G1 Y16.6116 Z7.50062
G1 Y18.516599999999997 Z7.553959999999999
G1 Y23.5966
G1 Y24.231599999999997 Z7.53618
G1 Y28.041600000000003 Z7.39648
G1 Y28.676599999999997 Z7.3583799999999995
G1 Y32.486599999999996 Z6.9723
G1 Y33.1216 Z6.9088
G1 Y33.7566 Z6.80466
G1 Y36.931599999999996 Z6.27888
G1 Y37.5666 Z6.172199999999999
G1 Y38.2016 Z6.04774
G1 Y41.376599999999996 Z5.31114
G1 Y42.011599999999994 Z5.16382
G1 Y42.6466 Z5.013959999999999
G1 Y45.8216 Z4.06908
G1 Y46.456599999999995 Z3.87858
G1 Y47.0916 Z3.69062
G1 Y47.7266 Z3.4696399999999996
G1 Y50.2666 Z2.54508
G1 Y50.901599999999995 Z2.3139399999999997
G1 Y51.53659999999999 Z2.0827999999999998
G1 Y52.17159999999999 Z1.83642
G1 Y54.7116 Z0.74168
G1 Y55.346599999999995 Z0.46735999999999994
G1 Y55.9816 Z0.19304
G1 Y56.6166 Z-0.0635
G1 Y57.60719999999999
G1 F762 X23.75154 Y59.69761999999999
G1 F7620 Y59.156600000000005
G1 Y58.52159999999999 Z0
G1 Y57.251599999999996 Z0.5460999999999999
G1 Y56.6166 Z0.82042
G1 Y54.0766 Z1.9151599999999998
G1 Y53.4416 Z2.1513799999999996
G1 Y52.8066 Z2.3825199999999995
G1 Y52.17159999999999 Z2.61366
G1 Y49.6316 Z3.53822
G1 Y48.9966 Z3.7464999999999997
G1 Y48.361599999999996 Z3.93446
G1 Y47.7266 Z4.12242
G1 Y45.1866 Z4.879339999999999
G1 Y44.5516 Z5.059679999999999
G1 Y43.9166 Z5.206999999999999
G1 Y43.2816 Z5.3543199999999995
G1 Y40.1066 Z6.08838
G1 Y39.4716 Z6.20268
G1 Y38.8366 Z6.30936
G1 Y35.66159999999999 Z6.83514
G1 Y35.026599999999995 Z6.9265799999999995
G1 Y34.391600000000004 Z6.99262
G1 Y30.581599999999998 Z7.37616
G1 Y29.9466 Z7.404099999999999
G1 Y26.136599999999998 Z7.541259999999999
G1 Y25.5016 Z7.5488800000000005
G1 Y24.8666
G1 Y24.231599999999997 Z7.553959999999999
G1 Y17.8816
G1 Y15.9766 Z7.50062
G1 Y15.341599999999998 Z7.37362
G1 Y14.706599999999998 Z-0.0635
G1 Y14.38402
G1 F762 X25.65654 Y12.956539999999999
G1 F7620 Y13.4366
G1 Y14.0716 Z7.06628
G1 Y14.706599999999998 Z7.37362
G1 Y15.341599999999998 Z7.426959999999999
G1 Y15.9766 Z7.44474
G1 Y16.6116 Z7.50062
G1 Y18.516599999999997 Z7.553959999999999
G1 Y23.5966
G1 Y24.231599999999997 Z7.5488800000000005
G1 Y26.136599999999998
G1 Y26.7716
G1 Y28.041600000000003
G1 Y32.486599999999996 Z7.3863199999999996
G1 Y33.1216 Z7.33044
G1 Y36.2966 Z7.010400000000001
G1 Y36.931599999999996 Z6.9469
G1 Y37.5666 Z6.868159999999999
G1 Y40.7416 Z6.33984
G1 Y42.011599999999994 Z6.12902
G1 Y42.6466 Z5.98424
G1 Y45.1866 Z5.3975
G1 Y45.8216 Z5.250179999999999
G1 Y46.456599999999995 Z5.10286
G1 Y47.0916 Z4.93268
G1 Y49.6316 Z4.1783
G1 Y50.2666 Z3.9903399999999993
G1 Y50.901599999999995 Z3.79984
G1 Y51.53659999999999 Z3.6042599999999996
G1 Y54.0766 Z2.6797
G1 Y54.7116 Z2.44856
G1 Y55.9816 Z1.98628
G1 Y56.6166 Z1.7221199999999999
G1 Y58.52159999999999 Z0.9016999999999998
G1 Y59.156600000000005 Z0.6273799999999999
G1 Y60.42659999999999 Z0.07873999999999999
G1 Y61.06159999999999 Z-0.0635
G1 Y61.7855
G1 F762 X27.561539999999997 Y63.87592
G1 F7620 Y62.9666
G1 Y62.3316 Z0.16002
G1 Y61.06159999999999 Z0.70612
G1 Y60.42659999999999 Z0.98044
G1 Y58.52159999999999 Z1.8008600000000001
G1 Y57.886599999999994 Z2.0548599999999997
G1 Y56.6166 Z2.5171399999999995
G1 Y55.9816 Z2.74828
G1 Y54.0766 Z3.4417
G1 Y53.4416 Z3.66522
G1 Y52.17159999999999 Z4.04368
G1 Y51.53659999999999 Z4.23164
G1 Y48.9966 Z4.98856
G1 Y48.361599999999996 Z5.14604
G1 Y47.7266 Z5.29336
G1 Y47.0916 Z5.4406799999999995
G1 Y44.5516 Z6.02742
G1 Y43.9166 Z6.1594999999999995
G1 Y42.6466 Z6.37032
G1 Y39.4716 Z6.898639999999999
G1 Y38.8366 Z6.9646799999999995
G1 Y38.2016 Z7.02818
G1 Y35.026599999999995 Z7.3482199999999995
G1 Y34.391600000000004 Z7.393940000000001
G1 Y29.9466 Z7.556499999999999
G1 Y24.8666
G1 Y24.231599999999997 Z7.5488800000000005
G1 Y20.4216
G1 Y15.9766 Z7.426959999999999
G1 Y15.341599999999998 Z7.37362
G1 Y14.706599999999998 Z7.18058
G1 Y13.4366 Z7.06628
G1 Y12.801599999999999 Z6.60146
G1 Y12.166599999999999 Z-0.0635
G1 Y11.54176
G1 F762 X29.466539999999995 Y10.13968
G1 F7620 Y10.8966
G1 Y11.5316 Z6.017259999999999
G1 Y12.166599999999999 Z6.60146
G1 Y13.4366 Z6.79704
G1 Y14.0716 Z7.06628
G1 Y17.8816 Z7.41426
G1 Y18.516599999999997 Z7.439659999999999
G1 Y22.3266 Z7.543799999999999
G1 Y22.9616 Z7.5488800000000005
G1 Y23.5966
G1 Y24.231599999999997 Z7.556499999999999
G1 Y30.581599999999998
G1 Y31.2166 Z7.551419999999999
G1 Y31.851599999999998
G1 Y32.486599999999996 Z7.53872
G1 Y36.2966 Z7.401559999999999
G1 Y36.931599999999996 Z7.36854
G1 Y40.1066 Z7.045959999999999
G1 Y41.376599999999996 Z6.918959999999999
G1 Y42.011599999999994 Z6.822439999999999
G1 Y44.5516 Z6.400799999999999
G1 Y45.8216 Z6.189979999999999
G1 Y46.456599999999995 Z6.0706
G1 Y48.9966 Z5.481319999999999
G1 Y49.6316 Z5.334
G1 Y50.901599999999995 Z5.0419
G1 Y51.53659999999999 Z4.85394
G1 Y53.4416 Z4.28752
G1 Y54.0766 Z4.099559999999999
G1 Y55.346599999999995 Z3.7210999999999994
G1 Y55.9816 Z3.5077399999999996
G1 Y57.886599999999994 Z2.81432
G1 Y58.52159999999999 Z2.58318
G1 Y59.7916 Z2.1209
G1 Y60.42659999999999 Z1.88214
G1 Y62.3316 Z1.05918
G1 Y62.9666 Z0.78486
G1 Y64.87159999999999 Z-0.035559999999999994
G1 Y65.5066 Z-0.0635
G1 Y65.96634
G1 F762 X31.37154 Y68.05676
G1 F7620 Y67.41159999999999
G1 Y66.7766 Z0.04572
G1 Y64.87159999999999 Z0.8661399999999999
G1 Y64.2366 Z1.14046
G1 Y62.9666 Z1.6865599999999998
G1 Y62.3316 Z1.95834
G1 Y60.42659999999999 Z2.65176
G1 Y59.7916 Z2.8829
G1 Y57.886599999999994 Z3.57632
G1 Y57.251599999999996 Z3.7769799999999996
G1 Y55.9816 Z4.1529
G1 Y55.346599999999995 Z4.3434
G1 Y53.4416 Z4.90982
G1 Y52.8066 Z5.08508
G1 Y51.53659999999999 Z5.37718
G1 Y50.901599999999995 Z5.5245
G1 Y48.361599999999996 Z6.113779999999999
G1 Y47.7266 Z6.22046
G1 Y46.456599999999995 Z6.431279999999999
G1 Y43.9166 Z6.852919999999999
G1 Y43.2816 Z6.9367399999999995
G1 Y42.011599999999994 Z7.06628
G1 Y39.4716 Z7.322819999999999
G1 Y38.8366 Z7.38378
G1 Y34.391600000000004 Z7.546339999999999
G1 Y33.7566
G1 Y33.1216
G1 Y32.486599999999996 Z7.551419999999999
G1 Y30.581599999999998
G1 Y29.9466 Z7.556499999999999
G1 Y24.8666
G1 Y24.231599999999997 Z7.53872
G1 Y20.4216 Z7.43458
G1 Y19.7866 Z7.39648
G1 Y15.341599999999998 Z6.99008
G1 Y14.706599999999998 Z6.8961
G1 Y12.801599999999999 Z6.60146
G1 Y12.166599999999999 Z6.27888
G1 Y11.5316 Z6.154419999999999
G1 Y10.8966 Z6.017259999999999
G1 Y10.2616 Z5.288279999999999
G1 Y9.6266 Z5.13842
G1 Y8.991599999999998 Z-0.0635
G1 Y8.752839999999999
G1 F762 X33.27654 Y7.378699999999999
G1 F7620 Y7.7216
G1 Y8.3566 Z4.19862
G1 Y8.991599999999998 Z5.13842
G1 Y9.6266 Z5.288279999999999
G1 Y10.8966 Z5.5651399999999995
G1 Y11.5316 Z6.017259999999999
G1 Y12.166599999999999 Z6.154419999999999
G1 Y12.801599999999999 Z6.27888
G1 Y17.2466 Z6.9646799999999995
G1 Y17.8816 Z7.033259999999999
G1 Y21.691599999999998 Z7.38124
G1 Y22.3266 Z7.429499999999999
G1 Y26.7716 Z7.551419999999999
G1 Y30.581599999999998
G1 Y31.2166 Z7.553959999999999
G1 Y36.2966
G1 Y40.7416 Z7.391399999999999
G1 Y41.376599999999996 Z7.340599999999999
G1 Y43.9166 Z7.084059999999999
G1 Y45.1866 Z6.957059999999999
G1 Y45.8216 Z6.8834
G1 Y48.361599999999996 Z6.46176
G1 Y50.2666 Z6.1468
G1 Y50.901599999999995 Z6.00964
G1 Y52.8066 Z5.56768
G1 Y53.4416 Z5.42036
G1 Y54.7116 Z5.12572
G1 Y55.346599999999995 Z4.963159999999999
G1 Y57.251599999999996 Z4.396739999999999
G1 Y57.886599999999994 Z4.208779999999999
G1 Y59.7916 Z3.6423599999999996
G1 Y60.42659999999999 Z3.4112199999999997
G1 Y61.69659999999999 Z2.94894
G1 Y62.3316 Z2.7178
G1 Y64.2366 Z2.02438
G1 Y64.87159999999999 Z1.7653
G1 Y66.1416 Z1.2192
G1 Y66.7766 Z0.9448799999999998
G1 Y68.6816 Z0.12445999999999999
G1 Y69.3166 Z-0.0635
G1 Y70.14464
G1 F762 X35.18154 Y72.23506
G1 F7620 Y71.2216
G1 Y70.58659999999999 Z0.2032
G1 Y68.6816 Z1.02362
G1 Y68.0466 Z1.2979399999999999
G1 Y66.7766 Z1.8465799999999999
G1 Y66.1416 Z2.0929599999999997
G1 Y64.2366 Z2.78384
G1 Y63.6016 Z3.01498
G1 Y62.3316 Z3.47726
G1 Y61.69659999999999 Z3.6956999999999995
G1 Y59.7916 Z4.2621199999999995
G1 Y59.156600000000005 Z4.4526200000000005
G1 Y57.251599999999996 Z5.0190399999999995
G1 Y56.6166 Z5.168899999999999
G1 Y55.346599999999995 Z5.46354
G1 Y54.7116 Z5.61086
G1 Y52.8066 Z6.05028
G1 Y52.17159999999999 Z6.17728
G1 Y50.2666 Z6.49224
G1 Y48.361599999999996 Z6.80974
G1 Y47.7266 Z6.91134
G1 Y45.8216 Z7.10184
G1 Y43.2816 Z7.3583799999999995
G1 Y42.6466 Z7.39648
G1 Y38.8366 Z7.53618
G1 Y38.2016 Z7.553959999999999
G1 Y33.1216
G1 Y32.486599999999996
G1 Y30.581599999999998
G1 Y29.9466 Z7.546339999999999
G1 Y28.676599999999997
G1 Y24.8666 Z7.439659999999999
G1 Y24.231599999999997 Z7.42188
G1 Y19.7866 Z7.015479999999999
G1 Y19.1516 Z6.9367399999999995
G1 Y14.706599999999998 Z6.25094
G1 Y14.0716 Z6.116319999999999
G1 Y10.2616 Z5.288279999999999
G1 Y9.6266 Z5.13842
G1 Y8.991599999999998 Z4.554219999999999
G1 Y7.7216 Z4.19862
G1 Y7.086600000000001 Z3.13182
G1 Y6.4516 Z-0.0635
G1 Y6.01472
G1 F762 X37.08654 Y4.665979999999999
G1 F7620 Y5.1815999999999995
G1 Y5.8166 Z1.9507199999999998
G1 Y6.4516 Z3.13182
G1 Y7.7216 Z3.5661599999999996
G1 Y8.3566 Z4.19862
G1 Y11.5316 Z5.08508
G1 Y12.166599999999999 Z5.24764
G1 Y16.6116 Z6.21284
G1 Y17.2466 Z6.31952
G1 Y21.0566 Z6.9088
G1 Y21.691599999999998 Z6.9977
G1 Y26.136599999999998 Z7.404099999999999
G1 Y26.7716 Z7.43458
G1 Y30.581599999999998 Z7.541259999999999
G1 Y31.2166 Z7.553959999999999
G1 Y31.851599999999998
G1 Y32.486599999999996
G1 Y38.8366
G1 Y39.4716 Z7.5488800000000005
G1 Y40.1066
G1 Y40.7416 Z7.543799999999999
G1 Y44.5516 Z7.404099999999999
G1 Y45.1866 Z7.378699999999999
G1 Y47.7266 Z7.122159999999999
G1 Y49.6316 Z6.929119999999999
G1 Y50.2666 Z6.8402199999999995
G1 Y52.17159999999999 Z6.522719999999999
G1 Y54.0766 Z6.2077599999999995
G1 Y54.7116 Z6.093459999999999
G1 Y56.6166 Z5.6514999999999995
G1 Y57.251599999999996 Z5.50672
G1 Y59.156600000000005 Z5.06476
G1 Y59.7916 Z4.8844199999999995
G1 Y61.06159999999999 Z4.50596
G1 Y61.69659999999999 Z4.3180000000000005
G1 Y63.6016 Z3.7515799999999997
G1 Y64.2366 Z3.5458399999999997
G1 Y65.5066 Z3.08356
G1 Y66.1416 Z2.85242
G1 Y68.0466 Z2.1590000000000003
G1 Y68.6816 Z1.9253200000000001
G1 Y69.9516 Z1.37922
G1 Y70.58659999999999 Z1.1048999999999998
G1 Y73.1266 Z0.01016
G1 Y73.76159999999999 Z-0.0635
G1 Y74.32548
G1 F762 X38.99153999999999 Y76.4159
G1 F7620 Y75.6666
G1 Y75.0316 Z0.08889999999999999
G1 Y72.4916 Z1.18364
G1 Y71.8566 Z1.45796
G1 Y71.2216 Z1.7322799999999998
G1 Y70.58659999999999 Z1.9939
G1 Y68.0466 Z2.91846
G1 Y67.41159999999999 Z3.1496
G1 Y66.1416 Z3.6118799999999998
G1 Y65.5066 Z3.80746
G1 Y63.6016 Z4.37388
G1 Y62.9666 Z4.56184
G1 Y61.69659999999999 Z4.9403
G1 Y61.06159999999999 Z5.10794
G1 Y59.156600000000005 Z5.54736
G1 Y58.52159999999999 Z5.69468
G1 Y57.251599999999996 Z5.98932
G1 Y56.6166 Z6.1315599999999995
G1 Y54.0766 Z6.5531999999999995
G1 Y52.17159999999999 Z6.8707
G1 Y51.53659999999999 Z6.9469
G1 Y49.6316 Z7.13994
G1 Y47.7266 Z7.33298
G1 Y47.0916 Z7.388859999999999
G1 Y42.6466 Z7.5488800000000005
G1 Y38.8366
G1 Y38.2016 Z7.553959999999999
G1 Y33.1216
G1 Y28.676599999999997 Z7.429499999999999
G1 Y28.041600000000003 Z7.388859999999999
G1 Y24.231599999999997 Z7.04088
G1 Y23.5966 Z6.979919999999999
G1 Y19.1516 Z6.29158
G1 Y18.516599999999997 Z6.17474
G1 Y14.0716 Z5.20954
G1 Y13.4366 Z5.034279999999999
G1 Y9.6266 Z3.9700199999999994
G1 Y8.991599999999998 Z3.78206
G1 Y7.086600000000001 Z3.13182
G1 Y6.4516 Z2.4206199999999995
G1 Y5.8166 Z2.20218
G1 Y5.1815999999999995 Z1.9507199999999998
G1 Y4.5466 Z0.59944
G1 Y3.9115999999999995 Z-0.0635
G1 Y3.3274
G1 F762 X40.89654 Y2.65176
G1 F7620 Y3.2765999999999997
G1 Y3.9115999999999995 Z0.59944
G1 Y5.1815999999999995 Z1.10998
G1 Y5.8166 Z1.9507199999999998
G1 Y6.4516 Z2.20218
G1 Y10.8966 Z3.7185599999999996
G1 Y11.5316 Z3.9192199999999997
G1 Y15.9766 Z5.16128
G1 Y16.6116 Z5.3060599999999996
G1 Y20.4216 Z6.134099999999999
G1 Y21.0566 Z6.26364
G1 Y25.5016 Z6.94944
G1 Y26.136599999999998 Z7.0231
G1 Y29.9466 Z7.37108
G1 Y30.581599999999998 Z7.42442
G1 Y35.026599999999995 Z7.5488800000000005
G1 Y36.2966
G1 Y36.931599999999996
G1 Y38.8366
G1 Y39.4716 Z7.556499999999999
G1 Y44.5516
G1 Y45.1866 Z7.533639999999999
G1 Y48.9966 Z7.393940000000001
G1 Y49.6316 Z7.350759999999999
G1 Y51.53659999999999 Z7.157719999999999
G1 Y53.4416 Z6.967219999999999
G1 Y54.0766 Z6.901179999999999
G1 Y55.9816 Z6.583679999999999
G1 Y58.52159999999999 Z6.16204
G1 Y59.156600000000005 Z6.0325
G1 Y60.42659999999999 Z5.7378599999999995
G1 Y61.06159999999999 Z5.59054
G1 Y62.9666 Z5.15112
G1 Y63.6016 Z4.99364
G1 Y64.87159999999999 Z4.617719999999999
G1 Y65.5066 Z4.42722
G1 Y68.0466 Z3.67284
G1 Y68.6816 Z3.4493199999999997
G1 Y69.3166 Z3.21818
G1 Y69.9516 Z2.98704
G1 Y72.4916 Z2.06248
G1 Y73.1266 Z1.8110199999999999
G1 Y73.76159999999999 Z1.5367
G1 Y74.39659999999999 Z1.26238
G1 Y76.9366 Z0.17018
G1 Y77.57159999999999 Z-0.0635
G1 Y78.50377999999999
G1 F762 X42.801539999999996 Y80.5942
G1 F7620 Y80.1116
G1 Y79.47659999999999 Z-0.0254
G1 Y76.3016 Z1.34366
G1 Y75.6666 Z1.61798
G1 Y75.0316 Z1.8897599999999997
G1 Y74.39659999999999 Z2.12852
G1 Y71.8566 Z3.05308
G1 Y71.2216 Z3.28422
G1 Y70.58659999999999 Z3.51536
G1 Y69.9516 Z3.72618
G1 Y67.41159999999999 Z4.483099999999999
G1 Y66.7766 Z4.67106
G1 Y66.1416 Z4.861559999999999
G1 Y65.5066 Z5.04698
G1 Y62.9666 Z5.633719999999999
G1 Y62.3316 Z5.78104
G1 Y61.06159999999999 Z6.075679999999999
G1 Y60.42659999999999 Z6.192519999999999
G1 Y57.886599999999994 Z6.61416
G1 Y56.6166 Z6.824979999999999
G1 Y55.9816 Z6.9215
G1 Y53.4416 Z7.17804
G1 Y51.53659999999999 Z7.36854
G1 Y50.901599999999995 Z7.401559999999999
G1 Y47.0916 Z7.53872
G1 Y46.456599999999995 Z7.551419999999999
G1 Y45.8216
G1 Y45.1866 Z7.556499999999999
G1 Y38.8366
G1 Y38.2016 Z7.5488800000000005
G1 Y37.5666
G1 Y36.931599999999996 Z7.543799999999999
G1 Y33.1216 Z7.437119999999999
G1 Y32.486599999999996 Z7.41172
G1 Y28.041600000000003 Z7.005319999999999
G1 Y27.406599999999997 Z6.9215
G1 Y23.5966 Z6.33476
G1 Y22.9616 Z6.23316
G1 Y18.516599999999997 Z5.2679599999999995
G1 Y17.8816 Z5.110479999999999
G1 Y13.4366 Z3.8684199999999995
G1 Y12.801599999999999 Z3.6575999999999995
G1 Y8.991599999999998 Z2.3571199999999997
G1 Y8.3566 Z2.1336
G1 Y4.5466 Z0.59944
G1 Y3.9115999999999995 Z-0.0635
G1 Y3.00736
G1 F762 X44.70654 Y4.6735999999999995
G1 F7620 Y5.1815999999999995
G1 Y5.8166 Z0.26924
G1 Y10.2616 Z2.05994
G1 Y10.8966 Z2.29362
G1 Y15.341599999999998 Z3.8099999999999996
G1 Y15.9766 Z3.99288
G1 Y19.7866 Z5.059679999999999
G1 Y20.4216 Z5.22732
G1 Y24.8666 Z6.192519999999999
G1 Y25.5016 Z6.304279999999999
G1 Y29.311599999999995 Z6.893559999999999
G1 Y29.9466 Z6.99008
G1 Y34.391600000000004 Z7.39648
G1 Y35.026599999999995 Z7.432040000000001
G1 Y39.4716 Z7.556499999999999
G1 Y44.5516
G1 Y45.1866 Z7.551419999999999
G1 Y47.0916
G1 Y47.7266 Z7.546339999999999
G1 Y48.9966
G1 Y53.4416 Z7.38378
G1 Y54.0766 Z7.322819999999999
G1 Y55.346599999999995 Z7.195819999999999
G1 Y57.886599999999994 Z6.939279999999999
G1 Y58.52159999999999 Z6.855459999999999
G1 Y59.7916 Z6.64464
G1 Y62.3316 Z6.223
G1 Y62.9666 Z6.116319999999999
G1 Y64.2366 Z5.8242199999999995
G1 Y64.87159999999999 Z5.6769
G1 Y67.41159999999999 Z5.08762
G1 Y68.0466 Z4.9149
G1 Y68.6816 Z4.726939999999999
G1 Y69.3166 Z4.53644
G1 Y71.8566 Z3.78206
G1 Y72.4916 Z3.5839399999999997
G1 Y73.1266 Z3.3528
G1 Y73.76159999999999 Z3.12166
G1 Y76.9366 Z1.9659599999999997
G1 Y77.57159999999999 Z1.6967199999999998
G1 Y78.2066 Z1.4223999999999999
G1 Y81.3816 Z0.05588
G1 Y82.0166 Z-0.0635
G1 Y82.68462
G1 F762 X46.61154 Y84.7725
G1 F7620 Y83.9216
G1 Y83.28659999999999 Z0.13462
G1 Y80.1116 Z1.50114
G1 Y79.47659999999999 Z1.77546
G1 Y78.8416 Z2.032
G1 Y75.6666 Z3.1877
G1 Y75.0316 Z3.41884
G1 Y74.39659999999999 Z3.64744
G1 Y71.2216 Z4.592319999999999
G1 Y70.58659999999999 Z4.78028
G1 Y69.9516 Z4.97078
G1 Y69.3166 Z5.1308
G1 Y66.7766 Z5.71754
G1 Y66.1416 Z5.864859999999999
G1 Y65.5066 Z6.01218
G1 Y64.87159999999999 Z6.14934
G1 Y61.69659999999999 Z6.675119999999999
G1 Y60.42659999999999 Z6.88594
G1 Y59.7916 Z6.957059999999999
G1 Y57.251599999999996 Z7.213599999999999
G1 Y55.9816 Z7.34314
G1 Y55.346599999999995 Z7.391399999999999
G1 Y50.901599999999995 Z7.553959999999999
G1 Y45.8216
G1 Y45.1866 Z7.551419999999999
G1 Y41.376599999999996
G1 Y36.931599999999996 Z7.426959999999999
G1 Y36.2966 Z7.378699999999999
G1 Y32.486599999999996 Z7.03072
G1 Y31.851599999999998 Z6.96214
G1 Y27.406599999999997 Z6.276339999999999
G1 Y26.7716 Z6.151879999999999
G1 Y22.9616 Z5.32384
G1 Y22.3266 Z5.18414
G1 Y17.8816 Z3.94208
G1 Y17.2466 Z3.74904
G1 Y12.801599999999999 Z2.23266
G1 Y12.166599999999999 Z1.98374
G1 Y8.3566 Z0.45211999999999997
G1 Y7.7216 Z-0.0635
G1 Y6.76148
G1 F762 X48.51653999999999 Y8.849359999999999
G1 F7620 Y9.6266
G1 Y10.2616 Z0.37845999999999996
G1 Y14.706599999999998 Z2.16662
G1 Y15.341599999999998 Z2.3850599999999997
G1 Y19.1516 Z3.68554
G1 Y19.7866 Z3.89128
G1 Y24.231599999999997 Z5.13334
G1 Y24.8666 Z5.28574
G1 Y28.676599999999997 Z6.11124
G1 Y29.311599999999995 Z6.248399999999999
G1 Y33.7566 Z6.9342
G1 Y34.391600000000004 Z7.0129399999999995
G1 Y38.8366 Z7.41934
G1 Y39.4716 Z7.439659999999999
G1 Y43.2816 Z7.546339999999999
G1 Y43.9166
G1 Y44.5516
G1 Y45.1866 Z7.553959999999999
G1 Y51.53659999999999
G1 Y52.17159999999999
G1 Y52.8066
G1 Y53.4416 Z7.53618
G1 Y57.251599999999996 Z7.399019999999999
G1 Y57.886599999999994 Z7.360919999999999
G1 Y59.156600000000005 Z7.2339199999999995
G1 Y62.3316 Z6.91134
G1 Y62.9666 Z6.8122799999999994
G1 Y63.6016 Z6.7056
G1 Y64.2366 Z6.60146
G1 Y66.7766 Z6.179819999999999
G1 Y67.41159999999999 Z6.055359999999999
G1 Y68.0466 Z5.90804
G1 Y68.6816 Z5.76072
G1 Y71.2216 Z5.173979999999999
G1 Y71.8566 Z5.02412
G1 Y72.4916 Z4.8361600000000005
G1 Y73.1266 Z4.648199999999999
G1 Y76.3016 Z3.70332
G1 Y76.9366 Z3.4848799999999995
G1 Y77.57159999999999 Z3.2537399999999996
G1 Y80.74659999999999 Z2.10058
G1 Y81.3816 Z1.8567399999999998
G1 Y82.0166 Z1.58242
G1 Y85.8266 Z-0.05841999999999999
G1 Y86.46159999999999 Z-0.0635
G1 Y86.86291999999999
G1 F762 X50.42154 Y88.95588
G1 F7620 Y88.36659999999999
G1 Y87.7316 Z0.02032
G1 Y83.9216 Z1.66116
G1 Y83.28659999999999 Z1.93548
G1 Y82.6516 Z2.16662
G1 Y79.47659999999999 Z3.32232
G1 Y78.8416 Z3.55346
G1 Y78.2066 Z3.7566599999999997
G1 Y75.0316 Z4.70154
G1 Y74.39659999999999 Z4.89204
G1 Y73.76159999999999 Z5.06984
G1 Y70.58659999999999 Z5.8039
G1 Y69.9516 Z5.95122
G1 Y69.3166 Z6.09854
G1 Y68.6816 Z6.210299999999999
G1 Y66.1416 Z6.631939999999999
G1 Y65.5066 Z6.736079999999999
G1 Y64.87159999999999 Z6.842759999999999
G1 Y64.2366 Z6.931659999999999
G1 Y61.06159999999999 Z7.251699999999999
G1 Y59.7916 Z7.378699999999999
G1 Y59.156600000000005 Z7.404099999999999
G1 Y55.346599999999995 Z7.543799999999999
G1 Y54.7116 Z7.5488800000000005
G1 Y54.0766
G1 Y53.4416 Z7.553959999999999
G1 Y51.53659999999999
G1 Y50.901599999999995
G1 Y45.8216
G1 Y45.1866 Z7.541259999999999
G1 Y41.376599999999996 Z7.43458
G1 Y40.7416 Z7.404099999999999
G1 Y36.2966 Z6.9977
G1 Y35.66159999999999 Z6.906259999999999
G1 Y31.851599999999998 Z6.31698
G1 Y31.2166 Z6.210299999999999
G1 Y26.7716 Z5.2451
G1 Y26.136599999999998 Z5.08254
G1 Y22.3266 Z4.01828
G1 Y21.691599999999998 Z3.84048
G1 Y17.2466 Z2.3240999999999996
G1 Y16.6116 Z2.0929599999999997
G1 Y12.166599999999999 Z0.3048
G1 Y11.5316 Z-0.0635
G1 Y10.93978
G1 F762 X52.326539999999994 Y13.02766
G1 F7620 Y13.4366
G1 Y14.0716 Z0.23114
G1 Y18.516599999999997 Z2.0193
G1 Y19.1516 Z2.2605999999999997
G1 Y23.5966 Z3.7769799999999996
G1 Y24.231599999999997 Z3.96748
G1 Y28.041600000000003 Z5.03174
G1 Y28.676599999999997 Z5.20446
G1 Y33.1216 Z6.1696599999999995
G1 Y33.7566 Z6.289039999999999
G1 Y38.2016 Z6.977379999999999
G1 Y38.8366 Z7.03834
G1 Y42.6466 Z7.3863199999999996
G1 Y43.2816 Z7.429499999999999
G1 Y47.7266 Z7.553959999999999
G1 Y52.8066
G1 Y53.4416 Z7.551419999999999
G1 Y57.251599999999996
G1 Y61.69659999999999 Z7.388859999999999
G1 Y62.3316 Z7.33298
G1 Y62.9666 Z7.26948
G1 Y66.1416 Z6.94944
G1 Y66.7766 Z6.87324
G1 Y67.41159999999999 Z6.76656
G1 Y68.0466 Z6.662419999999999
G1 Y71.2216 Z6.134099999999999
G1 Y71.8566 Z5.9944
G1 Y72.4916 Z5.847079999999999
G1 Y75.6666 Z5.11302
G1 Y76.3016 Z4.94538
G1 Y76.9366 Z4.75742
G1 Y80.1116 Z3.8125400000000003
G1 Y80.74659999999999 Z3.6194999999999995
G1 Y81.3816 Z3.3883599999999996
G1 Y85.1916 Z2.00406
G1 Y85.8266 Z1.7399
G1 Y87.7316 Z0.9194800000000001
G1 Y88.36659999999999 Z0.65024
G1 Y89.0016 Z0.38608
G1 Y89.63659999999999 Z0.12191999999999999
G1 Y90.27159999999999 Z-0.0635
G1 Y91.18091999999999
G1 F762 X54.231539999999995 Y93.40596
G1 F7620 Y92.8116
G1 Y92.1766 Z-0.007619999999999999
G1 Y90.9066 Z0.51816
G1 Y90.27159999999999 Z0.78232
G1 Y87.7316 Z1.8389600000000002
G1 Y87.0966 Z2.07772
G1 Y86.46159999999999 Z2.30124
G1 Y83.28659999999999 Z3.45694
G1 Y82.6516 Z3.6779200000000003
G1 Y78.8416 Z4.81076
G1 Y78.2066 Z5.001259999999999
G1 Y77.57159999999999 Z5.1536599999999995
G1 Y74.39659999999999 Z5.89026
G1 Y73.76159999999999 Z6.037579999999999
G1 Y73.1266 Z6.16712
G1 Y69.9516 Z6.6929
G1 Y69.3166 Z6.79704
G1 Y68.6816 Z6.903719999999999
G1 Y68.0466 Z6.967219999999999
G1 Y64.87159999999999 Z7.287259999999999
G1 Y64.2366 Z7.353299999999999
G1 Y63.6016 Z7.39648
G1 Y59.7916 Z7.533639999999999
G1 Y59.156600000000005 Z7.556499999999999
G1 Y54.0766
G1 Y53.4416 Z7.551419999999999
G1 Y51.53659999999999
G1 Y50.901599999999995 Z7.5488800000000005
G1 Y49.6316
G1 Y45.1866 Z7.42442
G1 Y44.5516 Z7.36854
G1 Y40.7416 Z7.020559999999999
G1 Y40.1066 Z6.9469
G1 Y35.66159999999999 Z6.2611
G1 Y35.026599999999995 Z6.1315599999999995
G1 Y31.2166 Z5.30352
G1 Y30.581599999999998 Z5.1562
G1 Y26.136599999999998 Z3.9141399999999993
G1 Y25.5016 Z3.7134799999999997
G1 Y21.0566 Z2.1971
G1 Y20.4216 Z1.94564
G1 Y16.6116 Z0.41147999999999996
G1 Y15.9766 Z-0.0635
G1 Y15.115539999999998
G1 F762 X56.136540000000004 Y17.203419999999998
G1 F7620 Y17.8816
G1 Y18.516599999999997 Z0.33781999999999995
G1 Y22.9616 Z2.1259799999999998
G1 Y23.5966 Z2.35204
G1 Y27.406599999999997 Z3.65252
G1 Y28.041600000000003 Z3.86334
G1 Y32.486599999999996 Z5.1054
G1 Y33.1216 Z5.26288
G1 Y37.5666 Z6.228079999999999
G1 Y38.2016 Z6.3322199999999995
G1 Y42.011599999999994 Z6.918959999999999
G1 Y42.6466 Z7.005319999999999
G1 Y47.0916 Z7.41172
G1 Y47.7266 Z7.437119999999999
G1 Y51.53659999999999 Z7.543799999999999
G1 Y52.17159999999999 Z7.551419999999999
G1 Y52.8066
G1 Y53.4416 Z7.556499999999999
G1 Y59.7916
G1 Y60.42659999999999 Z7.551419999999999
G1 Y61.06159999999999
G1 Y61.69659999999999 Z7.541259999999999
G1 Y65.5066 Z7.401559999999999
G1 Y66.1416 Z7.37108
G1 Y66.7766 Z7.30758
G1 Y70.58659999999999 Z6.9215
G1 Y71.2216 Z6.827519999999999
G1 Y71.8566 Z6.72338
G1 Y75.0316 Z6.1975999999999996
G1 Y75.6666 Z6.07822
G1 Y76.3016 Z5.9309
G1 Y80.1116 Z5.04952
G1 Y80.74659999999999 Z4.866639999999999
G1 Y84.5566 Z3.7337999999999996
G1 Y85.1916 Z3.5255199999999998
G1 Y88.36659999999999 Z2.4104599999999996
G1 Y89.63659999999999 Z1.9659599999999997
G1 Y90.27159999999999 Z1.7043400000000002
G1 Y91.5416 Z1.1785599999999998
G1 Y92.1766 Z0.9143999999999999
G1 Y94.0816 Z0.12445999999999999
G1 Y94.7166 Z-0.0635
G1 Y95.631
G1 F762 X58.04154 Y97.95763999999998
G1 F7620 Y97.2566
G1 Y96.62159999999999 Z0.007619999999999999
G1 Y95.9866 Z0.26161999999999996
G1 Y95.35159999999999 Z0.5206999999999999
G1 Y93.44659999999999 Z1.31064
G1 Y92.8116 Z1.5722599999999998
G1 Y92.1766 Z1.83642
G1 Y91.5416 Z2.0751799999999996
G1 Y89.63659999999999 Z2.7432
G1 Y89.0016 Z2.96672
G1 Y87.0966 Z3.63474
G1 Y86.46159999999999 Z3.8176199999999993
G1 Y85.8266 Z4.0005
G1 Y83.9216 Z4.5466
G1 Y83.28659999999999 Z4.7320199999999994
G1 Y82.6516 Z4.92252
G1 Y82.0166 Z5.0927
G1 Y78.2066 Z5.97408
G1 Y77.57159999999999 Z6.1213999999999995
G1 Y73.76159999999999 Z6.75386
G1 Y73.1266 Z6.858
G1 Y72.4916 Z6.941819999999999
G1 Y68.6816 Z7.325359999999999
G1 Y68.0466 Z7.3863199999999996
G1 Y63.6016 Z7.546339999999999
G1 Y62.3316
G1 Y61.69659999999999 Z7.551419999999999
G1 Y59.7916
G1 Y59.156600000000005 Z7.556499999999999
G1 Y54.0766
G1 Y49.6316 Z7.432040000000001
G1 Y48.9966 Z7.393940000000001
G1 Y44.5516 Z6.98754
G1 Y43.9166 Z6.891019999999999
G1 Y40.1066 Z6.30174
G1 Y39.4716 Z6.189979999999999
G1 Y35.026599999999995 Z5.22478
G1 Y34.391600000000004 Z5.0546
G1 Y30.581599999999998 Z3.9903399999999993
G1 Y29.9466 Z3.8049199999999996
G1 Y25.5016 Z2.28854
G1 Y24.8666 Z2.05232
G1 Y20.4216 Z0.26415999999999995
G1 Y19.7866 Z-0.0635
G1 Y19.29384
G1 F762 X59.94654 Y21.381719999999998
G1 F7620 Y22.3266
G1 Y22.9616 Z0.4445
G1 Y26.7716 Z1.9786599999999999
G1 Y27.406599999999997 Z2.2275799999999997
G1 Y31.851599999999998 Z3.74396
G1 Y32.486599999999996 Z3.9395399999999996
G1 Y36.931599999999996 Z5.17906
G1 Y37.5666 Z5.3213
G1 Y41.376599999999996 Z6.14934
G1 Y42.011599999999994 Z6.2738
G1 Y46.456599999999995 Z6.96214
G1 Y47.0916 Z7.02818
G1 Y50.901599999999995 Z7.37616
G1 Y51.53659999999999 Z7.426959999999999
G1 Y55.9816 Z7.551419999999999
G1 Y59.7916
G1 Y60.42659999999999 Z7.553959999999999
G1 Y65.5066
G1 Y69.9516 Z7.391399999999999
G1 Y70.58659999999999 Z7.34314
G1 Y74.39659999999999 Z6.9596
G1 Y75.0316 Z6.8884799999999995
G1 Y75.6666 Z6.784339999999999
G1 Y79.47659999999999 Z6.151879999999999
G1 Y80.1116 Z6.017259999999999
G1 Y82.0166 Z5.5752999999999995
G1 Y82.6516 Z5.43306
G1 Y83.28659999999999 Z5.29082
G1 Y83.9216 Z5.15112
G1 Y84.5566 Z5.001259999999999
G1 Y87.0966 Z4.272279999999999
G1 Y87.7316 Z4.0893999999999995
G1 Y89.0016 Z3.72618
G1 Y89.63659999999999 Z3.5229799999999996
G1 Y90.27159999999999 Z3.2994599999999994
G1 Y90.9066 Z3.0759399999999997
G1 Y94.0816 Z1.9634199999999997
G1 Y94.7166 Z1.71196
G1 Y97.2566 Z0.69342
G1 Y97.8916 Z0.43688
G1 Y98.52659999999999 Z0.18288
G1 Y99.16159999999999 Z-0.0635
G1 Y100.30206
G1 F762 X61.85153999999999 Y102.64648
G1 F7620 Y101.70159999999998
G1 Y101.0666 Z0.10414
G1 Y99.16159999999999 Z0.86868
G1 Y98.52659999999999 Z1.1226800000000001
G1 Y96.62159999999999 Z1.8897599999999997
G1 Y95.9866 Z2.11074
G1 Y95.35159999999999 Z2.32664
G1 Y92.8116 Z3.1877
G1 Y92.1766 Z3.4112199999999997
G1 Y91.5416 Z3.6321999999999997
G1 Y90.9066 Z3.8150799999999996
G1 Y89.0016 Z4.361179999999999
G1 Y88.36659999999999 Z4.54406
G1 Y87.0966 Z4.90728
G1 Y86.46159999999999 Z5.077459999999999
G1 Y85.1916 Z5.36194
G1 Y84.5566 Z5.50418
G1 Y82.0166 Z6.0706
G1 Y81.3816 Z6.18744
G1 Y80.74659999999999 Z6.289039999999999
G1 Y80.1116 Z6.393179999999999
G1 Y77.57159999999999 Z6.814819999999999
G1 Y76.9366 Z6.91388
G1 Y72.4916 Z7.363459999999999
G1 Y71.8566 Z7.399019999999999
G1 Y68.0466 Z7.53872
G1 Y67.41159999999999 Z7.553959999999999
G1 Y66.7766
G1 Y66.1416
G1 Y59.7916
G1 Y59.156600000000005 Z7.546339999999999
G1 Y58.52159999999999
G1 Y57.886599999999994
G1 Y54.0766 Z7.439659999999999
G1 Y53.4416 Z7.41934
G1 Y48.9966 Z7.0129399999999995
G1 Y48.361599999999996 Z6.931659999999999
G1 Y43.9166 Z6.2458599999999995
G1 Y43.2816 Z6.1087
G1 Y39.4716 Z5.28066
G1 Y38.8366 Z5.12826
G1 Y34.391600000000004 Z3.8861999999999997
G1 Y33.7566 Z3.6804599999999996
G1 Y29.9466 Z2.37998
G1 Y29.311599999999995 Z2.1615399999999996
G1 Y24.8666 Z0.37084
G1 Y24.231599999999997 Z-0.0635
G1 Y23.4696
G1 F762 X63.756539999999994 Y25.560019999999998
G1 F7620 Y26.136599999999998
G1 Y26.7716 Z0.29718
G1 Y31.2166 Z2.08534
G1 Y31.851599999999998 Z2.31902
G1 Y36.2966 Z3.8353999999999995
G1 Y36.931599999999996 Z4.013199999999999
G1 Y40.7416 Z5.077459999999999
G1 Y41.376599999999996 Z5.24256
G1 Y45.8216 Z6.2077599999999995
G1 Y46.456599999999995 Z6.31698
G1 Y50.2666 Z6.903719999999999
G1 Y50.901599999999995 Z6.995159999999999
G1 Y55.346599999999995 Z7.401559999999999
G1 Y55.9816 Z7.43458
G1 Y59.7916 Z7.541259999999999
G1 Y60.42659999999999 Z7.553959999999999
G1 Y65.5066
G1 Y66.1416
G1 Y68.0466
G1 Y68.6816 Z7.5488800000000005
G1 Y69.3166
G1 Y69.9516 Z7.543799999999999
G1 Y73.76159999999999 Z7.40664
G1 Y74.39659999999999 Z7.38124
G1 Y78.8416 Z6.931659999999999
G1 Y79.47659999999999 Z6.84784
G1 Y82.6516 Z6.3373
G1 Y83.9216 Z6.134099999999999
G1 Y84.5566 Z5.9969399999999995
G1 Y85.8266 Z5.715
G1 Y86.46159999999999 Z5.57276
G1 Y88.36659999999999 Z5.14858
G1 Y89.0016 Z4.99872
G1 Y89.63659999999999 Z4.81584
G1 Y90.9066 Z4.4526200000000005
G1 Y91.5416 Z4.272279999999999
G1 Y92.8116 Z3.9192199999999997
G1 Y93.44659999999999 Z3.74396
G1 Y94.0816 Z3.55092
G1 Y96.62159999999999 Z2.68986
G1 Y97.2566 Z2.47396
G1 Y98.52659999999999 Z2.0446999999999997
G1 Y99.16159999999999 Z1.8084799999999999
G1 Y99.79659999999998 Z1.5544799999999999
G1 Y100.4316 Z1.30048
G1 Y103.60659999999999 Z0.0254
G1 Y104.24159999999999 Z-0.0635
G1 Y104.98836
G1 F762 X65.66154 Y107.33023999999999
G1 F7620 Y106.78159999999998
G1 Y106.1466 Z-0.043179999999999996
G1 Y102.9716 Z1.2217399999999998
G1 Y102.33659999999999 Z1.4757399999999998
G1 Y101.70159999999998 Z1.7297399999999998
G1 Y101.0666 Z1.9786599999999999
G1 Y98.52659999999999 Z2.8371799999999996
G1 Y97.8916 Z3.05308
G1 Y96.62159999999999 Z3.4848799999999995
G1 Y95.9866 Z3.68808
G1 Y94.7166 Z4.0411399999999995
G1 Y94.0816 Z4.2164
G1 Y91.5416 Z4.91998
G1 Y90.9066 Z5.08254
G1 Y90.27159999999999 Z5.2197
G1 Y89.63659999999999 Z5.3594
G1 Y87.7316 Z5.78358
G1 Y87.0966 Z5.92582
G1 Y86.46159999999999 Z6.06806
G1 Y85.8266 Z6.1849
G1 Y83.9216 Z6.4897
G1 Y83.28659999999999 Z6.5912999999999995
G1 Y81.3816 Z6.8961
G1 Y80.74659999999999 Z6.96214
G1 Y80.1116 Z7.0231
G1 Y78.2066 Z7.208519999999999
G1 Y77.57159999999999 Z7.2720199999999995
G1 Y76.9366 Z7.33552
G1 Y76.3016 Z7.388859999999999
G1 Y71.8566 Z7.551419999999999
G1 Y68.0466
G1 Y67.41159999999999 Z7.553959999999999
G1 Y62.3316
G1 Y57.886599999999994 Z7.429499999999999
G1 Y57.251599999999996 Z7.38378
G1 Y53.4416 Z7.03834
G1 Y52.8066 Z6.9748399999999995
G1 Y48.361599999999996 Z6.286499999999999
G1 Y47.7266 Z6.16712
G1 Y43.2816 Z5.20192
G1 Y42.6466 Z5.02666
G1 Y38.8366 Z3.9623999999999997
G1 Y38.2016 Z3.7718999999999996
G1 Y33.7566 Z2.25552
G1 Y33.1216 Z2.01168
G1 Y31.2166 Z1.24714
G1 Y28.676599999999997 Z0.22352
G1 Y28.041600000000003 Z-0.0635
G1 Y27.6479
G1 F762 X67.56653999999999 Y29.735780000000002
G1 F7620 Y30.581599999999998
G1 Y31.2166 Z0.4064
G1 Y33.1216 Z1.17094
G1 Y35.026599999999995 Z1.93802
G1 Y35.66159999999999 Z2.19202
G1 Y40.1066 Z3.7083999999999997
G1 Y40.7416 Z3.9115999999999995
G1 Y45.1866 Z5.1536599999999995
G1 Y45.8216 Z5.30098
G1 Y49.6316 Z6.12648
G1 Y50.2666 Z6.25856
G1 Y54.7116 Z6.944359999999999
G1 Y55.346599999999995 Z7.020559999999999
G1 Y59.156600000000005 Z7.36854
G1 Y59.7916 Z7.42442
G1 Y64.2366 Z7.5488800000000005
G1 Y65.5066
G1 Y66.1416 Z7.551419999999999
G1 Y68.0466
G1 Y68.6816 Z7.553959999999999
G1 Y73.76159999999999
G1 Y74.39659999999999 Z7.533639999999999
G1 Y75.6666 Z7.48792
G1 Y76.3016 Z7.465059999999999
G1 Y78.2066 Z7.399019999999999
G1 Y78.8416 Z7.363459999999999
G1 Y81.3816 Z7.11454
G1 Y83.28659999999999 Z6.929119999999999
G1 Y83.9216 Z6.842759999999999
G1 Y84.5566 Z6.74116
G1 Y85.1916 Z6.63956
G1 Y88.36659999999999 Z6.1315599999999995
G1 Y89.0016 Z5.999479999999999
G1 Y91.5416 Z5.45084
G1 Y92.1766 Z5.31368
G1 Y93.44659999999999 Z5.039359999999999
G1 Y94.0816 Z4.8641
G1 Y95.35159999999999 Z4.513579999999999
G1 Y95.9866 Z4.33578
G1 Y97.8916 Z3.8099999999999996
G1 Y98.52659999999999 Z3.6321999999999997
G1 Y99.16159999999999 Z3.4163
G1 Y99.79659999999998 Z3.2029399999999995
G1 Y101.0666 Z2.77114
G1 Y101.70159999999998 Z2.5577799999999997
G1 Y102.9716 Z2.1310599999999997
G1 Y103.60659999999999 Z1.91262
G1 Y108.05159999999998 Z0.14223999999999998
G1 Y108.6866 Z-0.0635
G1 Y109.66958
G1 F762 X69.47154 Y112.00638
G1 F7620 Y111.22659999999998
G1 Y110.5916 Z0.0762
G1 Y108.05159999999998 Z1.0871199999999999
G1 Y106.1466 Z1.84404
G1 Y105.51159999999999 Z2.07264
G1 Y104.24159999999999 Z2.5019
G1 Y101.0666 Z3.5687
G1 Y100.4316 Z3.7566599999999997
G1 Y99.79659999999998 Z3.92938
G1 Y99.16159999999999 Z4.10718
G1 Y97.2566 Z4.63296
G1 Y96.62159999999999 Z4.81076
G1 Y95.9866 Z4.98602
G1 Y95.35159999999999 Z5.13334
G1 Y93.44659999999999 Z5.54482
G1 Y92.8116 Z5.68198
G1 Y90.9066 Z6.09092
G1 Y90.27159999999999 Z6.1975999999999996
G1 Y89.63659999999999 Z6.29666
G1 Y87.0966 Z6.69036
G1 Y86.46159999999999 Z6.79196
G1 Y85.8266 Z6.893559999999999
G1 Y85.1916 Z6.9596
G1 Y82.6516 Z7.205979999999999
G1 Y81.3816 Z7.33044
G1 Y80.74659999999999 Z7.3863199999999996
G1 Y76.3016 Z7.543799999999999
G1 Y75.6666 Z7.5488800000000005
G1 Y75.0316
G1 Y74.39659999999999 Z7.553959999999999
G1 Y68.0466
G1 Y67.41159999999999 Z7.551419999999999
G1 Y66.7766
G1 Y66.1416 Z7.543799999999999
G1 Y62.3316 Z7.437119999999999
G1 Y61.69659999999999 Z7.40918
G1 Y57.251599999999996 Z7.00278
G1 Y56.6166 Z6.91642
G1 Y52.8066 Z6.32968
G1 Y52.17159999999999 Z6.22554
G1 Y47.7266 Z5.26034
G1 Y47.0916 Z5.10032
G1 Y42.6466 Z3.8608
G1 Y42.011599999999994 Z3.64744
G1 Y38.2016 Z2.3469599999999997
G1 Y37.5666 Z2.1209
G1 Y35.026599999999995 Z1.09728
G1 Y33.1216 Z0.33274
G1 Y32.486599999999996 Z-0.0635
G1 Y31.823659999999997
G1 F762 X71.37653999999999 Y33.91408
G1 F7620 Y34.391600000000004
G1 Y35.026599999999995 Z0.25654
G1 Y36.931599999999996 Z1.02362
G1 Y39.4716 Z2.04724
G1 Y40.1066 Z2.28346
G1 Y44.5516 Z3.79984
G1 Y45.1866 Z3.9852600000000002
G1 Y48.9966 Z5.04952
G1 Y49.6316 Z5.2197
G1 Y54.0766 Z6.1849
G1 Y54.7116 Z6.2992
G1 Y58.52159999999999 Z6.8884799999999995
G1 Y59.156600000000005 Z6.98754
G1 Y63.6016 Z7.391399999999999
G1 Y64.2366 Z7.432040000000001
G1 Y68.6816 Z7.553959999999999
G1 Y73.76159999999999
G1 Y74.39659999999999
G1 Y78.2066
G1 Y82.6516 Z7.39648
G1 Y83.28659999999999 Z7.360919999999999
G1 Y83.9216 Z7.29996
G1 Y85.1916 Z7.175499999999999
G1 Y85.8266 Z7.11454
G1 Y87.0966 Z6.995159999999999
G1 Y87.7316 Z6.9342
G1 Y88.36659999999999 Z6.855459999999999
G1 Y90.9066 Z6.46176
G1 Y92.8116 Z6.16712
G1 Y93.44659999999999 Z6.04774
G1 Y94.0816 Z5.9105799999999995
G1 Y94.7166 Z5.77342
G1 Y97.8916 Z5.09016
G1 Y98.52659999999999 Z4.93014
G1 Y102.9716 Z3.7083999999999997
G1 Y103.60659999999999 Z3.5102799999999994
G1 Y108.05159999999998 Z2.0167599999999997
G1 Y108.6866 Z1.778
G1 Y109.3216 Z1.5239999999999998
G1 Y111.8616 Z0.51308
G1 Y112.4966 Z0.25654
G1 Y113.13159999999999 Z0
G1 Y113.7666 Z-0.0635
G1 Y114.34317999999999
G1 F762 X73.28153999999999 Y116.67998
G1 F7620 Y115.6716
G1 Y115.03659999999999 Z0.16256
G1 Y114.40159999999999 Z0.4191
G1 Y113.7666 Z0.6756399999999999
G1 Y111.22659999999998 Z1.7043400000000002
G1 Y110.5916 Z1.95834
G1 Y109.95659999999998 Z2.1717
G1 Y106.1466 Z3.4544
G1 Y105.51159999999999 Z3.6626799999999995
G1 Y101.0666 Z4.8844199999999995
G1 Y100.4316 Z5.05206
G1 Y97.2566 Z5.730239999999999
G1 Y96.62159999999999 Z5.8674
G1 Y95.9866 Z6.00456
G1 Y95.35159999999999 Z6.13664
G1 Y92.1766 Z6.62686
G1 Y90.9066 Z6.822439999999999
G1 Y90.27159999999999 Z6.91642
G1 Y89.0016 Z7.0358
G1 Y88.36659999999999 Z7.094219999999999
G1 Y85.8266 Z7.33298
G1 Y85.1916 Z7.3863199999999996
G1 Y84.5566 Z7.40918
G1 Y83.9216 Z7.429499999999999
G1 Y80.74659999999999 Z7.541259999999999
G1 Y80.1116 Z7.5488800000000005
G1 Y79.47659999999999
G1 Y78.8416 Z7.553959999999999
G1 Y72.4916
G1 Y71.8566 Z7.5488800000000005
G1 Y70.58659999999999
G1 Y69.9516 Z7.5310999999999995
G1 Y69.3166 Z7.515859999999999
G1 Y66.1416 Z7.426959999999999
G1 Y65.5066 Z7.37616
G1 Y61.69659999999999 Z7.02818
G1 Y61.06159999999999 Z6.9596
G1 Y56.6166 Z6.27126
G1 Y55.9816 Z6.1468
G1 Y52.17159999999999 Z5.31876
G1 Y51.53659999999999 Z5.17652
G1 Y47.0916 Z3.93446
G1 Y46.456599999999995 Z3.7388799999999995
G1 Y42.011599999999994 Z2.2224999999999997
G1 Y41.376599999999996 Z1.9735800000000001
G1 Y38.8366 Z0.94996
G1 Y37.5666 Z0.43942
G1 Y36.931599999999996 Z-0.0635
G1 Y36.00196
G1 F762 X75.18654 Y38.08984
G1 F7620 Y38.8366
G1 Y39.4716 Z0.36576
G1 Y40.7416 Z0.8763000000000001
G1 Y43.9166 Z2.15392
G1 Y44.5516 Z2.3749
G1 Y48.361599999999996 Z3.6753799999999996
G1 Y48.9966 Z3.88366
G1 Y53.4416 Z5.12572
G1 Y54.0766 Z5.27812
G1 Y58.52159999999999 Z6.24332
G1 Y59.156600000000005 Z6.3423799999999995
G1 Y62.9666 Z6.929119999999999
G1 Y63.6016 Z7.010400000000001
G1 Y68.0466 Z7.416799999999999
G1 Y68.6816 Z7.439659999999999
G1 Y72.4916 Z7.541259999999999
G1 Y73.1266 Z7.553959999999999
G1 Y78.2066
G1 Y78.8416 Z7.551419999999999
G1 Y82.6516
G1 Y83.28659999999999 Z7.5310999999999995
G1 Y87.0966 Z7.401559999999999
G1 Y87.7316 Z7.37362
G1 Y89.63659999999999 Z7.195819999999999
G1 Y90.27159999999999 Z7.134859999999999
G1 Y92.1766 Z6.957059999999999
G1 Y92.8116 Z6.891019999999999
G1 Y93.44659999999999 Z6.79196
G1 Y95.35159999999999 Z6.49732
G1 Y95.9866 Z6.400799999999999
G1 Y97.2566 Z6.20522
G1 Y97.8916 Z6.10108
G1 Y102.33659999999999 Z5.15112
G1 Y102.9716 Z5.01142
G1 Y107.4166 Z3.7896799999999997
G1 Y108.05159999999998 Z3.60934
G1 Y108.6866 Z3.39598
G1 Y109.3216 Z3.1826199999999996
G1 Y111.8616 Z2.3139399999999997
G1 Y112.4966 Z2.0955
G1 Y113.13159999999999 Z1.8668999999999998
G1 Y115.03659999999999 Z1.09728
G1 Y115.6716 Z0.8407399999999999
G1 Y117.57659999999998 Z0.06603999999999999
G1 Y118.21159999999999 Z-0.0635
G1 Y119.01423999999999
G1 F762 X77.09154 Y121.34342
G1 F7620 Y120.75159999999998
G1 Y120.11659999999999 Z-0.02794
G1 Y116.9416 Z1.2598399999999998
G1 Y115.6716 Z1.77546
G1 Y115.03659999999999 Z2.0167599999999997
G1 Y113.7666 Z2.4511
G1 Y113.13159999999999 Z2.66954
G1 Y110.5916 Z3.53822
G1 Y109.95659999999998 Z3.7337999999999996
G1 Y109.3216 Z3.9115999999999995
G1 Y108.05159999999998 Z4.264659999999999
G1 Y107.4166 Z4.44246
G1 Y105.51159999999999 Z4.9657
G1 Y104.87659999999998 Z5.115559999999999
G1 Y100.4316 Z6.06552
G1 Y99.79659999999998 Z6.179819999999999
G1 Y95.35159999999999 Z6.860539999999999
G1 Y94.7166 Z6.9367399999999995
G1 Y94.0816 Z6.995159999999999
G1 Y91.5416 Z7.236459999999999
G1 Y90.9066 Z7.29488
G1 Y90.27159999999999 Z7.355840000000001
G1 Y89.63659999999999 Z7.393940000000001
G1 Y85.1916 Z7.546339999999999
G1 Y84.5566 Z7.5488800000000005
G1 Y83.9216
G1 Y83.28659999999999 Z7.551419999999999
G1 Y76.9366
G1 Y76.3016 Z7.5488800000000005
G1 Y75.0316
G1 Y70.58659999999999 Z7.432040000000001
G1 Y69.9516 Z7.391399999999999
G1 Y69.3166 Z7.33552
G1 Y67.41159999999999 Z7.167879999999999
G1 Y66.7766 Z7.1094599999999994
G1 Y65.5066 Z6.995159999999999
G1 Y64.87159999999999 Z6.901179999999999
G1 Y61.06159999999999 Z6.314439999999999
G1 Y60.42659999999999 Z6.20268
G1 Y55.9816 Z5.23748
G1 Y55.346599999999995 Z5.072379999999999
G1 Y51.53659999999999 Z4.00812
G1 Y50.901599999999995 Z3.8303199999999995
G1 Y46.456599999999995 Z2.3139399999999997
G1 Y45.8216 Z2.08026
G1 Y42.6466 Z0.80264
G1 Y41.376599999999996 Z0.29209999999999997
G1 Y40.7416 Z-0.0635
G1 Y40.18026
G1 F762 X78.99654 Y42.268139999999995
G1 F7620 Y43.2816
G1 Y43.9166 Z0.4724399999999999
G1 Y44.5516 Z0.72898
G1 Y47.7266 Z2.0065999999999997
G1 Y48.361599999999996 Z2.2504399999999998
G1 Y52.8066 Z3.7668199999999996
G1 Y53.4416 Z3.9573199999999997
G1 Y57.251599999999996 Z5.021579999999999
G1 Y57.886599999999994 Z5.19938
G1 Y62.3316 Z6.16458
G1 Y62.9666 Z6.2839599999999995
G1 Y65.5066 Z6.67766
G1 Y66.1416 Z6.77164
G1 Y66.7766 Z6.868159999999999
G1 Y67.41159999999999 Z6.96214
G1 Y68.0466 Z7.02818
G1 Y70.58659999999999 Z7.251699999999999
G1 Y72.4916 Z7.41934
G1 Y73.1266 Z7.439659999999999
G1 Y76.9366 Z7.541259999999999
G1 Y77.57159999999999 Z7.551419999999999
G1 Y81.3816
G1 Y82.0166 Z7.553959999999999
G1 Y87.0966
G1 Y87.7316 Z7.53872
G1 Y92.1766 Z7.3863199999999996
G1 Y92.8116 Z7.33552
G1 Y93.44659999999999 Z7.277099999999999
G1 Y97.2566 Z6.9215
G1 Y97.8916 Z6.83514
G1 Y102.33659999999999 Z6.151879999999999
G1 Y102.9716 Z6.02996
G1 Y106.1466 Z5.35178
G1 Y106.78159999999998 Z5.21462
G1 Y107.4166 Z5.07492
G1 Y108.05159999999998 Z4.90982
G1 Y110.5916 Z4.20116
G1 Y111.22659999999998 Z4.02336
G1 Y112.4966 Z3.6702999999999997
G1 Y113.13159999999999 Z3.4594799999999997
G1 Y114.40159999999999 Z3.02514
G1 Y115.03659999999999 Z2.8066999999999998
G1 Y116.9416 Z2.15646
G1 Y117.57659999999998 Z1.93802
G1 Y118.21159999999999 Z1.6814799999999999
G1 Y118.8466 Z1.4223999999999999
G1 Y120.11659999999999 Z0.90678
G1 Y120.75159999999998 Z0.64516
G1 Y121.38659999999999 Z0.37592
G1 Y122.0216 Z0.10667999999999998
G1 Y122.65659999999998 Z-0.0635
G1 Y123.60655999999999
G1 F762 X80.90154 Y125.79349999999998
G1 F7620 Y125.1966
G1 Y124.56159999999998 Z-0.05588
G1 Y123.2916 Z0.4826
G1 Y122.65659999999998 Z0.7493
G1 Y120.11659999999999 Z1.82372
G1 Y119.48159999999999 Z2.06756
G1 Y118.8466 Z2.29362
G1 Y116.30659999999999 Z3.1622999999999997
G1 Y115.6716 Z3.38074
G1 Y115.03659999999999 Z3.59664
G1 Y114.40159999999999 Z3.78206
G1 Y112.4966 Z4.31546
G1 Y111.8616 Z4.493259999999999
G1 Y109.95659999999998 Z5.02412
G1 Y109.3216 Z5.16382
G1 Y108.6866 Z5.30098
G1 Y108.05159999999998 Z5.4406799999999995
G1 Y105.51159999999999 Z5.99186
G1 Y104.87659999999998 Z6.12648
G1 Y100.4316 Z6.8072
G1 Y99.79659999999998 Z6.906259999999999
G1 Y94.7166 Z7.378699999999999
G1 Y94.0816 Z7.404099999999999
G1 Y92.1766 Z7.467599999999999
G1 Y91.5416 Z7.48792
G1 Y89.63659999999999 Z7.553959999999999
G1 Y88.36659999999999
G1 Y87.7316
G1 Y81.3816
G1 Y80.74659999999999 Z7.5488800000000005
G1 Y79.47659999999999
G1 Y76.9366 Z7.482839999999999
G1 Y76.3016 Z7.465059999999999
G1 Y75.0316 Z7.432040000000001
G1 Y74.39659999999999 Z7.393940000000001
G1 Y71.8566 Z7.170419999999999
G1 Y69.9516 Z7.00278
G1 Y69.3166 Z6.91642
G1 Y68.0466 Z6.72846
G1 Y64.87159999999999 Z6.25348
G1 Y64.2366 Z6.12394
G1 Y63.6016 Z5.9867799999999995
G1 Y60.42659999999999 Z5.2959
G1 Y59.7916 Z5.14858
G1 Y55.346599999999995 Z3.9065199999999995
G1 Y54.7116 Z3.70332
G1 Y50.2666 Z2.18694
G1 Y49.6316 Z1.9329399999999999
G1 Y46.456599999999995 Z0.65532
G1 Y45.8216 Z0.39877999999999997
G1 Y45.1866 Z-0.0635
G1 Y44.356019999999994
G1 F762 X82.80654 Y46.4439
G1 F7620 Y47.0916
G1 Y47.7266 Z0.32512
G1 Y48.361599999999996 Z0.58166
G1 Y52.17159999999999 Z2.1132799999999996
G1 Y52.8066 Z2.34188
G1 Y56.6166 Z3.6423599999999996
G1 Y57.251599999999996 Z3.8557199999999994
G1 Y61.69659999999999 Z5.097779999999999
G1 Y62.3316 Z5.2578
G1 Y62.9666 Z5.39496
G1 Y66.1416 Z6.06044
G1 Y66.7766 Z6.19506
G1 Y67.41159999999999 Z6.304279999999999
G1 Y69.3166 Z6.58876
G1 Y71.8566 Z6.967219999999999
G1 Y72.4916 Z7.03072
G1 Y73.1266 Z7.086600000000001
G1 Y75.0316 Z7.25424
G1 Y75.6666 Z7.3101199999999995
G1 Y76.9366 Z7.416799999999999
G1 Y77.57159999999999 Z7.439659999999999
G1 Y82.0166 Z7.553959999999999
G1 Y87.0966
G1 Y87.7316
G1 Y90.27159999999999
G1 Y90.9066 Z7.546339999999999
G1 Y91.5416
G1 Y92.1766
G1 Y96.62159999999999 Z7.39648
G1 Y97.2566 Z7.363459999999999
G1 Y101.70159999999998 Z6.94944
G1 Y102.33659999999999 Z6.880859999999999
G1 Y102.9716 Z6.7818
G1 Y103.60659999999999 Z6.68528
G1 Y106.1466 Z6.289039999999999
G1 Y106.78159999999998 Z6.189979999999999
G1 Y107.4166 Z6.08076
G1 Y109.95659999999998 Z5.52958
G1 Y111.8616 Z5.115559999999999
G1 Y112.4966 Z4.96062
G1 Y113.13159999999999 Z4.782819999999999
G1 Y113.7666 Z4.60502
G1 Y116.9416 Z3.7185599999999996
G1 Y117.57659999999998 Z3.5179
G1 Y120.75159999999998 Z2.3850599999999997
G1 Y121.38659999999999 Z2.1590000000000003
G1 Y122.0216 Z1.9304
G1 Y123.92659999999998 Z1.1252199999999999
G1 Y124.56159999999998 Z0.85598
G1 Y126.4666 Z0.04826
G1 Y127.10159999999998 Z-0.0635
G1 Y127.90678
G1 F762 X84.71154 Y129.95148
G1 F7620 Y129.0066
G1 Y128.3716 Z0.1524
G1 Y125.83159999999998 Z1.2319
G1 Y125.1966 Z1.4986
G1 Y124.56159999999998 Z1.7678399999999999
G1 Y123.92659999999998 Z2.02184
G1 Y122.65659999999998 Z2.47396
G1 Y122.0216 Z2.7025599999999996
G1 Y119.48159999999999 Z3.6067999999999993
G1 Y118.8466 Z3.79984
G1 Y118.21159999999999 Z3.9827199999999996
G1 Y116.30659999999999 Z4.53898
G1 Y115.6716 Z4.71932
G1 Y115.03659999999999 Z4.89712
G1 Y114.40159999999999 Z5.06476
G1 Y111.22659999999998 Z5.75564
G1 Y109.95659999999998 Z6.02996
G1 Y109.3216 Z6.154419999999999
G1 Y108.05159999999998 Z6.352539999999999
G1 Y107.4166 Z6.4516
G1 Y104.87659999999998 Z6.84784
G1 Y104.24159999999999 Z6.929119999999999
G1 Y103.60659999999999 Z6.99008
G1 Y102.33659999999999 Z7.1094599999999994
G1 Y101.70159999999998 Z7.170419999999999
G1 Y99.79659999999998 Z7.3482199999999995
G1 Y99.16159999999999 Z7.391399999999999
G1 Y94.7166 Z7.541259999999999
G1 Y94.0816 Z7.551419999999999
G1 Y90.27159999999999
G1 Y89.63659999999999 Z7.553959999999999
G1 Y84.5566
G1 Y83.9216 Z7.541259999999999
G1 Y79.47659999999999 Z7.426959999999999
G1 Y78.8416 Z7.38124
G1 Y74.39659999999999 Z7.00278
G1 Y73.76159999999999 Z6.9215
G1 Y70.58659999999999 Z6.44906
G1 Y69.3166 Z6.25856
G1 Y68.6816 Z6.1315599999999995
G1 Y66.7766 Z5.730239999999999
G1 Y64.2366 Z5.19684
G1 Y63.6016 Z5.02666
G1 Y61.69659999999999 Z4.51104
G1 Y61.06159999999999 Z4.33578
G1 Y59.7916 Z3.98018
G1 Y59.156600000000005 Z3.79476
G1 Y54.7116 Z2.27838
G1 Y54.0766 Z2.0396199999999998
G1 Y50.2666 Z0.508
G1 Y49.6316 Z0.25146
G1 Y48.9966 Z-0.0635
G1 Y48.53432
G1 F762 X86.61653999999999 Y50.6222
G1 F7620 Y51.53659999999999
G1 Y52.17159999999999 Z0.43434
G1 Y55.9816 Z1.9659599999999997
G1 Y56.6166 Z2.2174199999999997
G1 Y59.7916 Z3.2994599999999994
G1 Y60.42659999999999 Z3.51282
G1 Y61.06159999999999 Z3.72364
G1 Y61.69659999999999 Z3.91668
G1 Y66.1416 Z5.115559999999999
G1 Y66.7766 Z5.2679599999999995
G1 Y68.0466 Z5.53466
G1 Y71.2216 Z6.20014
G1 Y71.8566 Z6.306819999999999
G1 Y72.4916 Z6.403339999999999
G1 Y73.1266 Z6.4947799999999996
G1 Y76.3016 Z6.95198
G1 Y76.9366 Z7.020559999999999
G1 Y81.3816 Z7.399019999999999
G1 Y82.0166 Z7.432040000000001
G1 Y85.1916 Z7.515859999999999
G1 Y85.8266 Z7.5310999999999995
G1 Y86.46159999999999 Z7.546339999999999
G1 Y87.7316
G1 Y88.36659999999999 Z7.551419999999999
G1 Y90.9066
G1 Y91.5416 Z7.556499999999999
G1 Y96.62159999999999
G1 Y97.2566 Z7.53618
G1 Y100.4316 Z7.429499999999999
G1 Y101.0666 Z7.40664
G1 Y101.70159999999998 Z7.3863199999999996
G1 Y102.33659999999999 Z7.33044
G1 Y104.87659999999998 Z7.0891399999999996
G1 Y105.51159999999999 Z7.02818
G1 Y106.78159999999998 Z6.9088
G1 Y107.4166 Z6.8122799999999994
G1 Y108.6866 Z6.61416
G1 Y109.3216 Z6.5150999999999994
G1 Y111.22659999999998 Z6.2179199999999994
G1 Y111.8616 Z6.11886
G1 Y112.4966 Z5.981699999999999
G1 Y114.40159999999999 Z5.56768
G1 Y115.03659999999999 Z5.42544
G1 Y115.6716 Z5.28066
G1 Y116.30659999999999 Z5.13842
G1 Y116.9416 Z4.98348
G1 Y119.48159999999999 Z4.244339999999999
G1 Y120.11659999999999 Z4.05892
G1 Y121.38659999999999 Z3.68808
G1 Y122.0216 Z3.4721799999999994
G1 Y123.2916 Z3.02006
G1 Y123.92659999999998 Z2.79146
G1 Y125.83159999999998 Z2.11074
G1 Y126.4666 Z1.87452
G1 Y127.10159999999998 Z1.60528
G1 Y129.0066 Z0.7975599999999999
G1 Y129.64159999999998 Z0.51816
G1 Y130.27659999999997 Z0.23114
G1 Y130.9116 Z-0.05841999999999999
G1 Y131.5466 Z-0.0635
G1 Y131.93014
G1 F762 X88.52154 Y133.84784
G1 F7620 Y133.45159999999998
G1 Y132.8166 Z-0.05841999999999999
G1 Y132.18159999999997 Z0.23114
G1 Y131.5466 Z0.5206999999999999
G1 Y129.0066 Z1.67386
G1 Y128.3716 Z1.95834
G1 Y127.7366 Z2.1996399999999996
G1 Y127.10159999999998 Z2.42824
G1 Y125.1966 Z3.1089599999999997
G1 Y124.56159999999998 Z3.3375599999999994
G1 Y123.92659999999998 Z3.56362
G1 Y123.2916 Z3.76174
G1 Y121.38659999999999 Z4.3180000000000005
G1 Y120.75159999999998 Z4.50342
G1 Y119.48159999999999 Z4.87426
G1 Y118.8466 Z5.05206
G1 Y117.57659999999998 Z5.34162
G1 Y116.9416 Z5.48386
G1 Y114.40159999999999 Z6.06044
G1 Y113.7666 Z6.179819999999999
G1 Y113.13159999999999 Z6.2839599999999995
G1 Y110.5916 Z6.67766
G1 Y109.95659999999998 Z6.776719999999999
G1 Y109.3216 Z6.87578
G1 Y108.6866 Z6.9469
G1 Y106.78159999999998 Z7.12724
G1 Y106.1466 Z7.188199999999999
G1 Y104.24159999999999 Z7.36854
G1 Y103.60659999999999 Z7.399019999999999
G1 Y99.79659999999998 Z7.52856
G1 Y99.16159999999999 Z7.551419999999999
G1 Y97.8916
G1 Y97.2566 Z7.556499999999999
G1 Y90.9066
G1 Y90.27159999999999 Z7.551419999999999
G1 Y89.0016
G1 Y84.5566 Z7.437119999999999
G1 Y83.9216 Z7.416799999999999
G1 Y79.47659999999999 Z7.03834
G1 Y78.8416 Z6.982459999999999
G1 Y73.76159999999999 Z6.25094
G1 Y73.1266 Z6.12394
G1 Y71.8566 Z5.8674
G1 Y71.2216 Z5.7378599999999995
G1 Y69.3166 Z5.33654
G1 Y68.6816 Z5.20446
G1 Y68.0466 Z5.034279999999999
G1 Y64.2366 Z4.00558
G1 Y63.6016 Z3.83286
G1 Y59.156600000000005 Z2.36728
G1 Y58.52159999999999 Z2.14884
G1 Y54.0766 Z0.35813999999999996
G1 Y53.4416 Z-0.0635
G1 Y52.71008
G1 F762 X90.42653999999999 Y54.8005
G1 F7620 Y55.346599999999995
G1 Y55.9816 Z0.28447999999999996
G1 Y57.251599999999996 Z0.7975599999999999
G1 Y57.886599999999994 Z1.0464799999999999
G1 Y59.7916 Z1.78816
G1 Y60.42659999999999 Z2.03454
G1 Y61.06159999999999 Z2.26822
G1 Y65.5066 Z3.7337999999999996
G1 Y66.1416 Z3.9242999999999997
G1 Y69.9516 Z4.953
G1 Y70.58659999999999 Z5.12064
G1 Y71.2216 Z5.26542
G1 Y74.39659999999999 Z5.90804
G1 Y75.6666 Z6.16712
G1 Y76.3016 Z6.28142
G1 Y78.2066 Z6.555739999999999
G1 Y80.74659999999999 Z6.9215
G1 Y81.3816 Z7.00278
G1 Y82.6516 Z7.1094599999999994
G1 Y83.28659999999999 Z7.162799999999999
G1 Y85.8266 Z7.37616
G1 Y86.46159999999999 Z7.426959999999999
G1 Y91.5416 Z7.556499999999999
G1 Y96.62159999999999
G1 Y97.2566 Z7.551419999999999
G1 Y99.79659999999998
G1 Y100.4316 Z7.5488800000000005
G1 Y101.0666
G1 Y101.70159999999998 Z7.543799999999999
G1 Y106.1466 Z7.391399999999999
G1 Y106.78159999999998 Z7.3482199999999995
G1 Y108.05159999999998 Z7.226299999999999
G1 Y111.22659999999998 Z6.9265799999999995
G1 Y111.8616 Z6.8402199999999995
G1 Y115.03659999999999 Z6.324599999999999
G1 Y115.6716 Z6.223
G1 Y116.30659999999999 Z6.11886
G1 Y118.21159999999999 Z5.68706
G1 Y118.8466 Z5.54228
G1 Y120.75159999999998 Z5.110479999999999
G1 Y121.38659999999999 Z4.94792
G1 Y122.0216 Z4.762499999999999
G1 Y122.65659999999998 Z4.57708
G1 Y125.83159999999998 Z3.64998
G1 Y126.4666 Z3.41884
G1 Y129.0066 Z2.44602
G1 Y129.64159999999998 Z2.20472
G1 Y130.27659999999997 Z1.96088
G1 Y130.9116 Z1.6764
G1 Y132.8166 Z0.8128
G1 Y133.45159999999998 Z0.5232399999999999
G1 Y134.7216 Z-0.05841999999999999
G1 Y135.3566 Z-0.0635
G1 Y135.70712
G1 F762 X92.33153999999999 Y137.50798
G1 F7620 Y137.2616
G1 Y136.62659999999997 Z-0.05588
G1 Y134.0866 Z1.10236
G1 Y133.45159999999998 Z1.3893799999999998
G1 Y132.8166 Z1.6764
G1 Y132.18159999999997 Z1.96088
G1 Y130.9116 Z2.4511
G1 Y130.27659999999997 Z2.69494
G1 Y128.3716 Z3.4213799999999996
G1 Y127.7366 Z3.6601399999999997
G1 Y127.10159999999998 Z3.8608
G1 Y126.4666 Z4.05892
G1 Y125.1966 Z4.455159999999999
G1 Y124.56159999999998 Z4.65328
G1 Y123.92659999999998 Z4.8387
G1 Y123.2916 Z5.02412
G1 Y122.65659999999998 Z5.168899999999999
G1 Y120.11659999999999 Z5.74548
G1 Y119.48159999999999 Z5.89026
G1 Y118.8466 Z6.0325
G1 Y118.21159999999999 Z6.16204
G1 Y116.30659999999999 Z6.47192
G1 Y113.7666 Z6.8834
G1 Y113.13159999999999 Z6.95452
G1 Y112.4966 Z7.018019999999999
G1 Y110.5916 Z7.205979999999999
G1 Y109.95659999999998 Z7.26694
G1 Y109.3216 Z7.325359999999999
G1 Y108.6866 Z7.38378
G1 Y104.24159999999999 Z7.53618
G1 Y103.60659999999999 Z7.553959999999999
G1 Y98.52659999999999
G1 Y97.8916 Z7.551419999999999
G1 Y94.0816
G1 Y93.44659999999999 Z7.543799999999999
G1 Y89.0016 Z7.429499999999999
G1 Y88.36659999999999 Z7.391399999999999
G1 Y83.9216 Z7.018019999999999
G1 Y83.28659999999999 Z6.9469
G1 Y82.0166 Z6.76656
G1 Y81.3816 Z6.675119999999999
G1 Y79.47659999999999 Z6.400799999999999
G1 Y78.8416 Z6.30936
G1 Y78.2066 Z6.2077599999999995
G1 Y75.6666 Z5.69468
G1 Y73.76159999999999 Z5.308599999999999
G1 Y73.1266 Z5.173979999999999
G1 Y69.3166 Z4.18084
G1 Y68.6816 Z4.015739999999999
G1 Y68.0466 Z3.8430199999999997
G1 Y67.41159999999999 Z3.63474
G1 Y63.6016 Z2.37744
G1 Y62.9666 Z2.16662
G1 Y61.06159999999999 Z1.4249399999999999
G1 Y58.52159999999999 Z0.43688
G1 Y57.886599999999994 Z-0.0635
G1 Y56.88838
G1 F762 X94.23654 Y59.100719999999995
G1 F7620 Y59.7916
G1 Y60.42659999999999 Z0.32004
G1 Y62.3316 Z1.05918
G1 Y64.87159999999999 Z2.0497799999999997
G1 Y65.5066 Z2.27838
G1 Y67.41159999999999 Z2.90576
G1 Y68.0466 Z3.1115
G1 Y69.9516 Z3.7160200000000003
G1 Y70.58659999999999 Z3.90398
G1 Y75.0316 Z5.06222
G1 Y75.6666 Z5.22224
G1 Y76.9366 Z5.4787799999999995
G1 Y80.1116 Z6.1213999999999995
G1 Y80.74659999999999 Z6.248399999999999
G1 Y85.8266 Z6.9723
G1 Y86.46159999999999 Z7.03072
G1 Y90.9066 Z7.40664
G1 Y91.5416 Z7.43458
G1 Y92.8116 Z7.467599999999999
G1 Y93.44659999999999 Z7.482839999999999
G1 Y95.9866 Z7.5488800000000005
G1 Y97.2566
G1 Y97.8916 Z7.553959999999999
G1 Y104.24159999999999
G1 Y104.87659999999998 Z7.5488800000000005
G1 Y106.1466
G1 Y108.6866 Z7.46252
G1 Y109.3216 Z7.442199999999999
G1 Y110.5916 Z7.39648
G1 Y111.22659999999998 Z7.355840000000001
G1 Y113.7666 Z7.10692
G1 Y114.40159999999999 Z7.043419999999999
G1 Y115.6716 Z6.91642
G1 Y116.30659999999999 Z6.822439999999999
G1 Y117.57659999999998 Z6.6167
G1 Y120.11659999999999 Z6.20268
G1 Y120.75159999999998 Z6.093459999999999
G1 Y121.38659999999999 Z5.9486799999999995
G1 Y122.65659999999998 Z5.6616599999999995
G1 Y123.2916 Z5.5118
G1 Y124.56159999999998 Z5.20446
G1 Y125.1966 Z5.04952
G1 Y125.83159999999998 Z4.85648
G1 Y127.7366 Z4.25958
G1 Y128.3716 Z4.061459999999999
G1 Y129.64159999999998 Z3.6626799999999995
G1 Y130.27659999999997 Z3.4264599999999996
G1 Y131.5466 Z2.9413199999999997
G1 Y132.18159999999997 Z2.69748
G1 Y134.0866 Z1.9634199999999997
G1 Y134.7216 Z1.67894
G1 Y135.3566 Z1.39192
G1 Y138.5316 Z-0.05588
G1 Y139.1666 Z-0.0635
G1 Y139.25296
G1 F762 X96.14153999999999 Y140.94968
G1 F7620 Y140.4366
G1 Y139.80159999999998 Z0.11683999999999999
G1 Y139.1666 Z0.43688
G1 Y137.2616 Z1.3893799999999998
G1 Y136.62659999999997 Z1.6814799999999999
G1 Y135.9916 Z1.9659599999999997
G1 Y132.8166 Z3.1877
G1 Y132.18159999999997 Z3.429
G1 Y131.5466 Z3.66776
G1 Y129.64159999999998 Z4.264659999999999
G1 Y129.0066 Z4.4627799999999995
G1 Y127.7366 Z4.85902
G1 Y127.10159999999998 Z5.05206
G1 Y125.83159999999998 Z5.36194
G1 Y123.2916 Z5.979159999999999
G1 Y122.65659999999998 Z6.12902
G1 Y122.0216 Z6.24078
G1 Y121.38659999999999 Z6.35
G1 Y118.8466 Z6.76148
G1 Y118.21159999999999 Z6.865619999999999
G1 Y117.57659999999998 Z6.944359999999999
G1 Y115.6716 Z7.132319999999999
G1 Y115.03659999999999 Z7.19328
G1 Y113.13159999999999 Z7.38124
G1 Y112.4966 Z7.40664
G1 Y111.8616 Z7.426959999999999
G1 Y108.6866 Z7.541259999999999
G1 Y108.05159999999998 Z7.551419999999999
G1 Y104.24159999999999
G1 Y103.60659999999999 Z7.553959999999999
G1 Y98.52659999999999
G1 Y94.0816 Z7.439659999999999
G1 Y93.44659999999999 Z7.42188
G1 Y92.1766 Z7.312659999999999
G1 Y91.5416 Z7.25932
G1 Y88.36659999999999 Z6.99262
G1 Y87.7316 Z6.906259999999999
G1 Y83.28659999999999 Z6.27126
G1 Y82.6516 Z6.15696
G1 Y79.47659999999999 Z5.519419999999999
G1 Y78.8416 Z5.3924199999999995
G1 Y78.2066 Z5.26288
G1 Y77.57159999999999 Z5.1181
G1 Y73.1266 Z3.95986
G1 Y72.4916 Z3.78206
G1 Y68.0466 Z2.36982
G1 Y67.41159999999999 Z2.16408
G1 Y66.7766 Z1.9253200000000001
G1 Y66.1416 Z1.6840199999999999
G1 Y63.6016 Z0.69596
G1 Y62.9666 Z0.44958
G1 Y62.3316 Z-0.0635
G1 Y61.33084
G1 F762 X98.04654 Y63.578739999999996
G1 F7620 Y64.2366
G1 Y64.87159999999999 Z0.33274
G1 Y65.5066 Z0.5740399999999999
G1 Y68.6816 Z1.7653
G1 Y69.3166 Z2.0015199999999997
G1 Y69.9516 Z2.23266
G1 Y74.39659999999999 Z3.64744
G1 Y75.0316 Z3.8480999999999996
G1 Y77.57159999999999 Z4.5085
G1 Y78.2066 Z4.6735999999999995
G1 Y80.1116 Z5.16382
G1 Y80.74659999999999 Z5.29844
G1 Y85.1916 Z6.189979999999999
G1 Y85.8266 Z6.29666
G1 Y90.27159999999999 Z6.929119999999999
G1 Y90.9066 Z7.007859999999999
G1 Y95.35159999999999 Z7.3863199999999996
G1 Y95.9866 Z7.429499999999999
G1 Y100.4316 Z7.543799999999999
G1 Y101.0666 Z7.5488800000000005
G1 Y101.70159999999998
G1 Y102.33659999999999 Z7.551419999999999
G1 Y108.6866
G1 Y109.3216
G1 Y110.5916
G1 Y113.13159999999999 Z7.45998
G1 Y115.03659999999999 Z7.391399999999999
G1 Y115.6716 Z7.34568
G1 Y116.30659999999999 Z7.282179999999999
G1 Y116.9416 Z7.22122
G1 Y119.48159999999999 Z6.969759999999999
G1 Y120.11659999999999 Z6.906259999999999
G1 Y120.75159999999998 Z6.79704
G1 Y123.2916 Z6.355079999999999
G1 Y123.92659999999998 Z6.24332
G1 Y124.56159999999998 Z6.1315599999999995
G1 Y125.1966 Z5.98424
G1 Y126.4666 Z5.674359999999999
G1 Y127.10159999999998 Z5.519419999999999
G1 Y129.0066 Z5.0571399999999995
G1 Y129.64159999999998 Z4.8641
G1 Y130.27659999999997 Z4.665979999999999
G1 Y130.9116 Z4.46786
G1 Y133.45159999999998 Z3.6702999999999997
G1 Y134.0866 Z3.4340799999999994
G1 Y134.7216 Z3.1877
G1 Y135.3566 Z2.94386
G1 Y137.2616 Z2.1412199999999997
G1 Y137.8966 Z1.8567399999999998
G1 Y140.4366 Z0.5867399999999999
G1 Y141.0716 Z0.2667
G1 Y141.70659999999998 Z-0.05333999999999999
G1 Y142.3416 Z-0.0635
G1 Y142.59306
G1 F762 X99.95154 Y144.19072
G1 F7620 Y143.61159999999998
G1 Y142.9766 Z0.09652
G1 Y141.70659999999998 Z0.7366
G1 Y141.0716 Z1.0541
G1 Y139.80159999999998 Z1.69164
G1 Y139.1666 Z1.99898
G1 Y138.5316 Z2.26822
G1 Y137.8966 Z2.53746
G1 Y135.3566 Z3.60934
G1 Y134.7216 Z3.8353999999999995
G1 Y134.0866 Z4.053839999999999
G1 Y133.45159999999998 Z4.26974
G1 Y131.5466 Z4.86918
G1 Y130.9116 Z5.059679999999999
G1 Y128.3716 Z5.67944
G1 Y127.7366 Z5.8343799999999995
G1 Y127.10159999999998 Z5.9867799999999995
G1 Y126.4666 Z6.13664
G1 Y125.1966 Z6.35762
G1 Y124.56159999999998 Z6.469379999999999
G1 Y122.65659999999998 Z6.79958
G1 Y122.0216 Z6.9088
G1 Y121.38659999999999 Z6.9748399999999995
G1 Y120.75159999999998 Z7.043419999999999
G1 Y118.8466 Z7.244079999999999
G1 Y118.21159999999999 Z7.3101199999999995
G1 Y117.57659999999998 Z7.37108
G1 Y116.9416 Z7.401559999999999
G1 Y113.13159999999999 Z7.53618
G1 Y112.4966 Z7.553959999999999
G1 Y107.4166
G1 Y106.78159999999998 Z7.551419999999999
G1 Y102.9716
G1 Y102.33659999999999 Z7.533639999999999
G1 Y98.52659999999999 Z7.43458
G1 Y97.8916 Z7.40664
G1 Y93.44659999999999 Z7.02564
G1 Y92.8116 Z6.9596
G1 Y92.1766 Z6.868159999999999
G1 Y89.63659999999999 Z6.5024
G1 Y89.0016 Z6.41096
G1 Y88.36659999999999 Z6.31952
G1 Y87.7316 Z6.223
G1 Y82.6516 Z5.206999999999999
G1 Y82.0166 Z5.04444
G1 Y77.57159999999999 Z3.8989
G1 Y76.9366 Z3.71094
G1 Y76.3016 Z3.5102799999999994
G1 Y72.4916 Z2.2986999999999997
G1 Y71.8566 Z2.08026
G1 Y69.9516 Z1.36652
G1 Y67.41159999999999 Z0.41147999999999996
G1 Y66.7766 Z-0.0635
G1 Y65.84441999999999
G1 F762 X101.85654000000001 Y68.12787999999999
G1 F7620 Y68.6816
G1 Y69.3166 Z0.25146
G1 Y71.2216 Z0.96774
G1 Y74.39659999999999 Z2.1590000000000003
G1 Y75.0316 Z2.36474
G1 Y75.6666 Z2.5654
G1 Y79.47659999999999 Z3.76428
G1 Y80.1116 Z3.94208
G1 Y84.5566 Z5.08762
G1 Y85.1916 Z5.24002
G1 Y87.7316 Z5.7480199999999995
G1 Y88.36659999999999 Z5.87756
G1 Y89.63659999999999 Z6.134099999999999
G1 Y90.27159999999999 Z6.25856
G1 Y93.44659999999999 Z6.7183
G1 Y94.7166 Z6.901179999999999
G1 Y95.35159999999999 Z6.99008
G1 Y99.79659999999998 Z7.37108
G1 Y100.4316 Z7.42442
G1 Y101.0666 Z7.439659999999999
G1 Y101.70159999999998 Z7.45744
G1 Y104.24159999999999 Z7.52602
G1 Y104.87659999999998 Z7.543799999999999
G1 Y105.51159999999999 Z7.551419999999999
G1 Y106.1466
G1 Y106.78159999999998 Z7.553959999999999
G1 Y113.13159999999999
G1 Y113.7666 Z7.546339999999999
G1 Y115.03659999999999
G1 Y116.9416 Z7.477759999999999
G1 Y118.8466 Z7.40664
G1 Y119.48159999999999 Z7.38124
G1 Y122.0216 Z7.112
G1 Y122.65659999999998 Z7.045959999999999
G1 Y123.92659999999998 Z6.91134
G1 Y124.56159999999998 Z6.80466
G1 Y125.1966 Z6.6929
G1 Y125.83159999999998 Z6.583679999999999
G1 Y128.3716 Z6.13918
G1 Y129.0066 Z5.99186
G1 Y129.64159999999998 Z5.83692
G1 Y131.5466 Z5.3721
G1 Y132.18159999999997 Z5.206999999999999
G1 Y132.8166 Z5.034279999999999
G1 Y133.45159999999998 Z4.81838
G1 Y135.3566 Z4.16052
G1 Y135.9916 Z3.94208
G1 Y136.62659999999997 Z3.7210999999999994
G1 Y137.2616 Z3.4696399999999996
G1 Y138.5316 Z2.9337
G1 Y139.1666 Z2.667
G1 Y140.4366 Z2.1259799999999998
G1 Y141.0716 Z1.8414999999999997
G1 Y142.3416 Z1.2065
G1 Y144.2466 Z0.24383999999999997
G1 Y144.8816 Z-0.0635
G1 Y145.74265999999997
G1 F762 X103.76153999999998 Y147.24634
G1 F7620 Y146.7866
G1 Y146.15159999999997 Z0.07365999999999999
G1 Y143.61159999999998 Z1.35382
G1 Y142.9766 Z1.67386
G1 Y142.3416 Z1.98374
G1 Y140.4366 Z2.794
G1 Y139.80159999999998 Z3.06324
G1 Y138.5316 Z3.5991799999999996
G1 Y137.8966 Z3.8277799999999997
G1 Y137.2616 Z4.04876
G1 Y136.62659999999997 Z4.2672
G1 Y134.7216 Z4.925059999999999
G1 Y134.0866 Z5.1181
G1 Y133.45159999999998 Z5.29082
G1 Y130.9116 Z5.97154
G1 Y130.27659999999997 Z6.13664
G1 Y129.64159999999998 Z6.25348
G1 Y127.10159999999998 Z6.69544
G1 Y126.4666 Z6.8072
G1 Y125.83159999999998 Z6.91388
G1 Y123.2916 Z7.18312
G1 Y121.38659999999999 Z7.38378
G1 Y120.11659999999999 Z7.432040000000001
G1 Y119.48159999999999 Z7.454899999999999
G1 Y116.9416 Z7.551419999999999
G1 Y113.13159999999999
G1 Y112.4966 Z7.553959999999999
G1 Y107.4166
G1 Y105.51159999999999 Z7.503159999999999
G1 Y102.9716 Z7.432040000000001
G1 Y102.33659999999999 Z7.399019999999999
G1 Y101.70159999999998 Z7.340599999999999
G1 Y100.4316 Z7.22884
G1 Y99.79659999999998 Z7.172959999999999
G1 Y97.8916 Z7.010400000000001
G1 Y97.2566 Z6.931659999999999
G1 Y94.7166 Z6.5659
G1 Y92.8116 Z6.289039999999999
G1 Y92.1766 Z6.179819999999999
G1 Y90.9066 Z5.9207399999999994
G1 Y87.7316 Z5.27558
G1 Y87.0966 Z5.13334
G1 Y86.46159999999999 Z4.96824
G1 Y82.6516 Z3.9852600000000002
G1 Y82.0166 Z3.8176199999999993
G1 Y76.9366 Z2.21996
G1 Y76.3016 Z1.9888199999999998
G1 Y74.39659999999999 Z1.2827
G1 Y73.76159999999999 Z1.0439399999999999
G1 Y72.4916 Z0.5689599999999999
G1 Y71.8566 Z0.3302
G1 Y71.2216 Z-0.0635
G1 Y70.43166
G1 F762 X105.66654 Y72.75322
G1 F7620 Y73.76159999999999
G1 Y74.39659999999999 Z0.40132
G1 Y78.8416 Z2.05232
G1 Y79.47659999999999 Z2.2733
G1 Y83.9216 Z3.6702999999999997
G1 Y84.5566 Z3.8658799999999998
G1 Y85.1916 Z4.03098
G1 Y85.8266 Z4.19354
G1 Y89.63659999999999 Z5.18922
G1 Y90.27159999999999 Z5.3213
G1 Y92.1766 Z5.70738
G1 Y94.7166 Z6.22554
G1 Y95.35159999999999 Z6.32206
G1 Y95.9866 Z6.4135
G1 Y98.52659999999999 Z6.7818
G1 Y99.16159999999999 Z6.87578
G1 Y99.79659999999998 Z6.9723
G1 Y100.4316 Z7.0358
G1 Y102.9716 Z7.2618599999999995
G1 Y104.24159999999999 Z7.37362
G1 Y104.87659999999998 Z7.426959999999999
G1 Y109.3216 Z7.546339999999999
G1 Y109.95659999999998
G1 Y110.5916
G1 Y111.22659999999998 Z7.551419999999999
G1 Y113.13159999999999
G1 Y113.7666 Z7.553959999999999
G1 Y118.8466
G1 Y120.75159999999998 Z7.480299999999999
G1 Y121.38659999999999 Z7.45744
G1 Y123.2916 Z7.38378
G1 Y123.92659999999998 Z7.317740000000001
G1 Y124.56159999999998 Z7.251699999999999
G1 Y127.7366 Z6.91388
G1 Y128.3716 Z6.8072
G1 Y130.9116 Z6.31952
G1 Y131.5466 Z6.19506
G1 Y132.18159999999997 Z6.055359999999999
G1 Y134.0866 Z5.54482
G1 Y134.7216 Z5.37464
G1 Y135.3566 Z5.20192
G1 Y135.9916 Z5.03174
G1 Y137.2616 Z4.59486
G1 Y137.8966 Z4.37388
G1 Y139.80159999999998 Z3.7134799999999997
G1 Y140.4366 Z3.46202
G1 Y141.0716 Z3.19278
G1 Y143.61159999999998 Z2.1132799999999996
G1 Y144.2466 Z1.82372
G1 Y144.8816 Z1.50368
G1 Y145.51659999999998 Z1.15824
G1 Y146.7866 Z0.46228
G1 Y147.4216 Z0.11429999999999998
G1 Y148.05659999999997 Z-0.0635
G1 Y148.61285999999998
G1 F762 X107.57154 Y149.92858
G1 F7620 Y149.32659999999998
G1 Y148.6916 Z0.10667999999999998
G1 Y148.05659999999997 Z0.45719999999999994
G1 Y147.4216 Z0.8051799999999999
G1 Y145.51659999999998 Z1.84912
G1 Y144.8816 Z2.15646
G1 Y144.2466 Z2.4511
G1 Y142.9766 Z3.0378399999999997
G1 Y142.3416 Z3.31978
G1 Y141.70659999999998 Z3.58902
G1 Y141.0716 Z3.82016
G1 Y138.5316 Z4.70154
G1 Y137.8966 Z4.91998
G1 Y137.2616 Z5.115559999999999
G1 Y135.3566 Z5.62864
G1 Y134.7216 Z5.79882
G1 Y134.0866 Z5.968999999999999
G1 Y133.45159999999998 Z6.134099999999999
G1 Y132.18159999999997 Z6.3804799999999995
G1 Y131.5466 Z6.5024
G1 Y129.64159999999998 Z6.868159999999999
G1 Y129.0066 Z6.957059999999999
G1 Y128.3716 Z7.03072
G1 Y126.4666 Z7.251699999999999
G1 Y125.83159999999998 Z7.3202799999999995
G1 Y125.1966 Z7.3863199999999996
G1 Y122.0216 Z7.505699999999999
G1 Y120.75159999999998 Z7.553959999999999
G1 Y115.6716
G1 Y115.03659999999999
G1 Y113.13159999999999
G1 Y112.4966 Z7.551419999999999
G1 Y111.8616
G1 Y111.22659999999998 Z7.541259999999999
G1 Y110.5916 Z7.52348
G1 Y109.95659999999998 Z7.505699999999999
G1 Y107.4166 Z7.437119999999999
G1 Y106.78159999999998 Z7.40664
G1 Y104.24159999999999 Z7.18058
G1 Y102.33659999999999 Z7.010400000000001
G1 Y101.70159999999998 Z6.931659999999999
G1 Y101.0666 Z6.83514
G1 Y100.4316 Z6.74116
G1 Y97.2566 Z6.2611
G1 Y96.62159999999999 Z6.13918
G1 Y93.44659999999999 Z5.49402
G1 Y92.1766 Z5.23748
G1 Y91.5416 Z5.08254
G1 Y87.0966 Z3.9192199999999997
G1 Y86.46159999999999 Z3.7337999999999996
G1 Y84.5566 Z3.1241999999999996
G1 Y83.9216 Z2.92608
G1 Y82.0166 Z2.32664
G1 Y81.3816 Z2.11582
G1 Y76.3016 Z0.22859999999999997
G1 Y75.6666 Z-0.0635
G1 Y75.09255999999999
G1 F762 X109.47654 Y77.45222
G1 F7620 Y78.2066
G1 Y78.8416 Z0.29209999999999997
G1 Y83.28659999999999 Z1.9430999999999998
G1 Y83.9216 Z2.18186
G1 Y84.5566 Z2.3850599999999997
G1 Y89.0016 Z3.8049199999999996
G1 Y89.63659999999999 Z3.9776399999999996
G1 Y94.0816 Z5.14096
G1 Y94.7166 Z5.28066
G1 Y95.35159999999999 Z5.4102
G1 Y95.9866 Z5.539739999999999
G1 Y98.52659999999999 Z6.07822
G1 Y99.16159999999999 Z6.21284
G1 Y99.79659999999998 Z6.31698
G1 Y101.70159999999998 Z6.604
G1 Y102.33659999999999 Z6.700519999999999
G1 Y104.24159999999999 Z6.98754
G1 Y104.87659999999998 Z7.043419999999999
G1 Y105.51159999999999 Z7.0993
G1 Y108.6866 Z7.38378
G1 Y109.3216 Z7.429499999999999
G1 Y112.4966 Z7.520939999999999
G1 Y113.13159999999999 Z7.53872
G1 Y113.7666 Z7.553959999999999
G1 Y114.40159999999999
G1 Y115.03659999999999
G1 Y116.9416
G1 Y117.57659999999998 Z7.556499999999999
G1 Y122.65659999999998
G1 Y123.2916 Z7.5310999999999995
G1 Y124.56159999999998 Z7.482839999999999
G1 Y125.1966 Z7.45744
G1 Y126.4666 Z7.404099999999999
G1 Y127.10159999999998 Z7.363459999999999
G1 Y129.64159999999998 Z7.06882
G1 Y130.9116 Z6.918959999999999
G1 Y131.5466 Z6.8072
G1 Y132.8166 Z6.56336
G1 Y134.7216 Z6.19506
G1 Y135.3566 Z6.05282
G1 Y135.9916 Z5.882639999999999
G1 Y136.62659999999997 Z5.712459999999999
G1 Y138.5316 Z5.19938
G1 Y139.1666 Z5.02666
G1 Y139.80159999999998 Z4.80568
G1 Y140.4366 Z4.5847
G1 Y142.3416 Z3.8658799999999998
G1 Y142.9766 Z3.6220399999999997
G1 Y144.8816 Z2.7432
G1 Y145.51659999999998 Z2.44856
G1 Y146.15159999999997 Z2.15392
G1 Y146.7866 Z1.84404
G1 Y148.05659999999997 Z1.15062
G1 Y148.6916 Z0.8000999999999999
G1 Y149.96159999999998 Z0.1016
G1 Y150.5966 Z-0.0635
G1 Y151.19096
G1 F762 X111.38154 Y152.40762
G1 F7620 Y151.8666
G1 Y151.2316 Z0.09398
G1 Y149.32659999999998 Z1.14554
G1 Y148.6916 Z1.49352
G1 Y148.05659999999997 Z1.8414999999999997
G1 Y147.4216 Z2.1513799999999996
G1 Y146.15159999999997 Z2.7406599999999997
G1 Y144.2466 Z3.6220399999999997
G1 Y143.61159999999998 Z3.8658799999999998
G1 Y142.9766 Z4.10464
G1 Y141.0716 Z4.82346
G1 Y140.4366 Z5.0571399999999995
G1 Y139.80159999999998 Z5.2451
G1 Y138.5316 Z5.615939999999999
G1 Y137.8966 Z5.796279999999999
G1 Y137.2616 Z5.96646
G1 Y136.62659999999997 Z6.134099999999999
G1 Y134.0866 Z6.624319999999999
G1 Y133.45159999999998 Z6.746239999999999
G1 Y132.8166 Z6.868159999999999
G1 Y132.18159999999997 Z6.957059999999999
G1 Y130.9116 Z7.10438
G1 Y130.27659999999997 Z7.18058
G1 Y129.0066 Z7.327899999999999
G1 Y128.3716 Z7.388859999999999
G1 Y127.10159999999998 Z7.44474
G1 Y124.56159999999998 Z7.551419999999999
G1 Y123.92659999999998
G1 Y123.2916 Z7.556499999999999
G1 Y116.9416
G1 Y116.30659999999999 Z7.553959999999999
G1 Y115.6716
G1 Y115.03659999999999 Z7.53872
G1 Y113.7666 Z7.503159999999999
G1 Y111.22659999999998 Z7.429499999999999
G1 Y110.5916 Z7.378699999999999
G1 Y109.95659999999998 Z7.317740000000001
G1 Y108.05159999999998 Z7.134859999999999
G1 Y107.4166 Z7.07644
G1 Y106.78159999999998 Z7.018019999999999
G1 Y106.1466 Z6.9469
G1 Y102.9716 Z6.4668399999999995
G1 Y101.70159999999998 Z6.276339999999999
G1 Y101.0666 Z6.154419999999999
G1 Y99.79659999999998 Z5.885179999999999
G1 Y99.16159999999999 Z5.750559999999999
G1 Y96.62159999999999 Z5.21462
G1 Y95.9866 Z5.04444
G1 Y94.7166 Z4.699
G1 Y94.0816 Z4.533899999999999
G1 Y91.5416 Z3.8684199999999995
G1 Y90.9066 Z3.67284
G1 Y86.46159999999999 Z2.25298
G1 Y85.8266 Z2.02438
G1 Y85.1916 Z1.78562
G1 Y82.6516 Z0.83058
G1 Y82.0166 Z0.59182
G1 Y81.3816 Z0.35559999999999997
G1 Y80.74659999999999 Z-0.0635
G1 Y79.82965999999999
G1 F762 X113.28653999999999 Y82.23758
G1 F7620 Y83.28659999999999
G1 Y83.9216 Z0.43434
G1 Y86.46159999999999 Z1.39192
G1 Y88.36659999999999 Z2.1082
G1 Y89.0016 Z2.3240999999999996
G1 Y92.8116 Z3.5407599999999997
G1 Y93.44659999999999 Z3.74396
G1 Y94.0816 Z3.93446
G1 Y97.2566 Z4.79806
G1 Y98.52659999999999 Z5.1435
G1 Y99.16159999999999 Z5.29082
G1 Y100.4316 Z5.56006
G1 Y101.0666 Z5.69468
G1 Y103.60659999999999 Z6.230619999999999
G1 Y104.24159999999999 Z6.32968
G1 Y105.51159999999999 Z6.522719999999999
G1 Y106.1466 Z6.61924
G1 Y107.4166 Z6.824979999999999
G1 Y108.05159999999998 Z6.9265799999999995
G1 Y108.6866 Z7.0129399999999995
G1 Y111.22659999999998 Z7.25424
G1 Y112.4966 Z7.37616
G1 Y113.13159999999999 Z7.426959999999999
G1 Y114.40159999999999 Z7.465059999999999
G1 Y116.9416 Z7.53872
G1 Y117.57659999999998 Z7.556499999999999
G1 Y122.65659999999998
G1 Y123.2916 Z7.551419999999999
G1 Y125.83159999999998
G1 Y126.4666 Z7.53618
G1 Y127.7366 Z7.482839999999999
G1 Y128.3716 Z7.45744
G1 Y129.64159999999998 Z7.404099999999999
G1 Y130.27659999999997 Z7.365999999999999
G1 Y130.9116 Z7.29234
G1 Y131.5466 Z7.21868
G1 Y134.0866 Z6.918959999999999
G1 Y134.7216 Z6.8072
G1 Y135.3566 Z6.68528
G1 Y135.9916 Z6.560819999999999
G1 Y137.2616 Z6.2941199999999995
G1 Y137.8966 Z6.16204
G1 Y138.5316 Z5.98932
G1 Y140.4366 Z5.43052
G1 Y141.0716 Z5.2451
G1 Y141.70659999999998 Z5.0571399999999995
G1 Y142.3416 Z4.82346
G1 Y143.61159999999998 Z4.34594
G1 Y144.2466 Z4.10464
G1 Y144.8816 Z3.86334
G1 Y145.51659999999998 Z3.6194999999999995
G1 Y146.7866 Z3.03276
G1 Y148.6916 Z2.1463
G1 Y149.32659999999998 Z1.83642
G1 Y149.96159999999998 Z1.48844
G1 Y152.50159999999997 Z0.08889999999999999
G1 Y153.1366 Z-0.0635
G1 Y153.57348
G1 F762 X115.19153999999999 Y154.69616
G1 F7620 Y154.4066
G1 Y153.7716 Z0.00254
G1 Y153.1366 Z0.37338
G1 Y151.2316 Z1.4808199999999998
G1 Y150.5966 Z1.8313399999999997
G1 Y149.96159999999998 Z2.14376
G1 Y147.4216 Z3.3248599999999997
G1 Y146.7866 Z3.6169599999999997
G1 Y146.15159999999997 Z3.86334
G1 Y144.8816 Z4.34594
G1 Y144.2466 Z4.5847
G1 Y143.61159999999998 Z4.826
G1 Y142.9766 Z5.0571399999999995
G1 Y141.70659999999998 Z5.43306
G1 Y141.0716 Z5.61848
G1 Y139.80159999999998 Z5.99186
G1 Y139.1666 Z6.16204
G1 Y138.5316 Z6.29666
G1 Y137.8966 Z6.4287399999999995
G1 Y135.9916 Z6.830059999999999
G1 Y135.3566 Z6.941819999999999
G1 Y134.7216 Z7.020559999999999
G1 Y134.0866 Z7.10184
G1 Y133.45159999999998 Z7.18058
G1 Y132.18159999999997 Z7.33044
G1 Y131.5466 Z7.391399999999999
G1 Y129.0066 Z7.49808
G1 Y127.7366 Z7.551419999999999
G1 Y122.65659999999998
G1 Y122.0216
G1 Y119.48159999999999
G1 Y118.8466 Z7.541259999999999
G1 Y118.21159999999999 Z7.520939999999999
G1 Y117.57659999999998 Z7.50062
G1 Y115.6716 Z7.44474
G1 Y115.03659999999999 Z7.426959999999999
G1 Y114.40159999999999 Z7.37362
G1 Y112.4966 Z7.19074
G1 Y111.8616 Z7.129779999999999
G1 Y110.5916 Z7.007859999999999
G1 Y109.95659999999998 Z6.9215
G1 Y109.3216 Z6.8199
G1 Y108.6866 Z6.71576
G1 Y106.1466 Z6.306819999999999
G1 Y105.51159999999999 Z6.18744
G1 Y104.87659999999998 Z6.0451999999999995
G1 Y104.24159999999999 Z5.9055
G1 Y102.33659999999999 Z5.501639999999999
G1 Y101.70159999999998 Z5.367019999999999
G1 Y101.0666 Z5.232399999999999
G1 Y100.4316 Z5.06984
G1 Y98.52659999999999 Z4.551679999999999
G1 Y95.9866 Z3.8608
G1 Y95.35159999999999 Z3.65252
G1 Y92.1766 Z2.5958799999999997
G1 Y91.5416 Z2.39268
G1 Y90.9066 Z2.19202
G1 Y90.27159999999999 Z1.9532599999999998
G1 Y87.7316 Z0.9956799999999999
G1 Y85.8266 Z0.2794
G1 Y85.1916 Z-0.0635
G1 Y84.68614
G1 F762 X117.09653999999999 Y87.05596
G1 F7620 Y87.7316
G1 Y88.36659999999999 Z0.36068
G1 Y89.0016 Z0.59944
G1 Y90.27159999999999 Z1.0795000000000001
G1 Y90.9066 Z1.31826
G1 Y92.1766 Z1.8160999999999998
G1 Y92.8116 Z2.0650199999999996
G1 Y93.44659999999999 Z2.2961599999999995
G1 Y97.8916 Z3.7744400000000002
G1 Y98.52659999999999 Z3.95986
G1 Y102.9716 Z5.168899999999999
G1 Y103.60659999999999 Z5.31622
G1 Y106.1466 Z5.8928
G1 Y106.78159999999998 Z6.0350399999999995
G1 Y107.4166 Z6.179819999999999
G1 Y108.05159999999998 Z6.30174
G1 Y109.3216 Z6.5049399999999995
G1 Y109.95659999999998 Z6.60908
G1 Y111.8616 Z6.91642
G1 Y112.4966 Z7.005319999999999
G1 Y113.13159999999999 Z7.06628
G1 Y115.6716 Z7.3101199999999995
G1 Y116.30659999999999 Z7.37108
G1 Y116.9416 Z7.429499999999999
G1 Y119.48159999999999 Z7.5107800000000005
G1 Y120.11659999999999 Z7.5310999999999995
G1 Y120.75159999999998 Z7.551419999999999
G1 Y121.38659999999999
G1 Y122.0216
G1 Y128.3716
G1 Y129.0066 Z7.5488800000000005
G1 Y129.64159999999998 Z7.53872
G1 Y131.5466 Z7.45744
G1 Y132.18159999999997 Z7.429499999999999
G1 Y132.8166 Z7.399019999999999
G1 Y133.45159999999998 Z7.3482199999999995
G1 Y135.3566 Z7.10438
G1 Y135.9916 Z7.0231
G1 Y136.62659999999997 Z6.941819999999999
G1 Y137.2616 Z6.8326
G1 Y138.5316 Z6.5659
G1 Y139.1666 Z6.431279999999999
G1 Y140.4366 Z6.16204
G1 Y141.0716 Z5.99186
G1 Y141.70659999999998 Z5.806439999999999
G1 Y142.3416 Z5.61848
G1 Y144.2466 Z5.0571399999999995
G1 Y144.8816 Z4.826
G1 Y145.51659999999998 Z4.5847
G1 Y147.4216 Z3.8608
G1 Y148.05659999999997 Z3.6169599999999997
G1 Y148.6916 Z3.3121599999999995
G1 Y150.5966 Z2.37744
G1 Y151.2316 Z2.0650199999999996
G1 Y151.8666 Z1.7170399999999997
G1 Y153.7716 Z0.6096
G1 Y154.4066 Z0.23876
G1 Y155.0416 Z-0.0635
G1 Y155.77566
G1 F762 X119.00154 Y156.80944
G1 F7620 Y156.3116
G1 Y155.67659999999998 Z0.1016
G1 Y154.4066 Z0.84582
G1 Y153.7716 Z1.2166599999999999
G1 Y153.1366 Z1.58496
G1 Y152.50159999999997 Z1.9532599999999998
G1 Y151.8666 Z2.2656799999999997
G1 Y151.2316 Z2.58064
G1 Y149.32659999999998 Z3.51536
G1 Y148.6916 Z3.7922199999999995
G1 Y148.05659999999997 Z4.04876
G1 Y146.15159999999997 Z4.8133
G1 Y145.51659999999998 Z5.0571399999999995
G1 Y142.9766 Z5.806439999999999
G1 Y142.3416 Z5.9944
G1 Y141.70659999999998 Z6.16458
G1 Y139.80159999999998 Z6.5659
G1 Y139.1666 Z6.700519999999999
G1 Y138.5316 Z6.8326
G1 Y137.8966 Z6.941819999999999
G1 Y136.62659999999997 Z7.10438
G1 Y135.9916 Z7.1856599999999995
G1 Y134.7216 Z7.3482199999999995
G1 Y134.0866 Z7.399019999999999
G1 Y133.45159999999998 Z7.429499999999999
G1 Y130.9116 Z7.546339999999999
G1 Y130.27659999999997
G1 Y129.64159999999998 Z7.5488800000000005
G1 Y128.3716
G1 Y127.7366 Z7.551419999999999
G1 Y122.65659999999998
G1 Y122.0216 Z7.53872
G1 Y120.75159999999998 Z7.49808
G1 Y118.8466 Z7.437119999999999
G1 Y118.21159999999999 Z7.404099999999999
G1 Y117.57659999999998 Z7.33552
G1 Y116.9416 Z7.26948
G1 Y115.03659999999999 Z7.06882
G1 Y114.40159999999999 Z7.00278
G1 Y113.7666 Z6.91134
G1 Y111.22659999999998 Z6.49986
G1 Y110.5916 Z6.39826
G1 Y109.95659999999998 Z6.29666
G1 Y109.3216 Z6.172199999999999
G1 Y107.4166 Z5.7404
G1 Y105.51159999999999 Z5.308599999999999
G1 Y104.87659999999998 Z5.1562
G1 Y104.24159999999999 Z4.97078
G1 Y102.33659999999999 Z4.41452
G1 Y101.70159999999998 Z4.23164
G1 Y100.4316 Z3.88366
G1 Y99.79659999999998 Z3.6829999999999994
G1 Y95.35159999999999 Z2.20472
G1 Y94.7166 Z1.95834
G1 Y94.0816 Z1.70942
G1 Y93.44659999999999 Z1.4605
G1 Y90.9066 Z0.46481999999999996
G1 Y90.27159999999999 Z-0.0635
G1 Y89.35211999999999
G1 F762 X120.90654 Y91.5797
G1 F7620 Y92.1766
G1 Y92.8116 Z0.35813999999999996
G1 Y94.7166 Z1.1048999999999998
G1 Y97.2566 Z2.10058
G1 Y97.8916 Z2.32664
G1 Y99.79659999999998 Z2.9591
G1 Y100.4316 Z3.16992
G1 Y101.70159999999998 Z3.6245799999999995
G1 Y102.33659999999999 Z3.8480999999999996
G1 Y104.87659999999998 Z4.589779999999999
G1 Y105.51159999999999 Z4.7752
G1 Y106.78159999999998 Z5.14604
G1 Y107.4166 Z5.30098
G1 Y108.05159999999998 Z5.443219999999999
G1 Y108.6866 Z5.588
G1 Y111.22659999999998 Z6.16458
G1 Y111.8616 Z6.289039999999999
G1 Y112.4966 Z6.393179999999999
G1 Y113.13159999999999 Z6.5024
G1 Y115.03659999999999 Z6.8402199999999995
G1 Y115.6716 Z6.95452
G1 Y116.30659999999999 Z7.033259999999999
G1 Y118.21159999999999 Z7.2339199999999995
G1 Y119.48159999999999 Z7.36854
G1 Y120.11659999999999 Z7.426959999999999
G1 Y121.38659999999999 Z7.467599999999999
G1 Y123.92659999999998 Z7.5488800000000005
G1 Y129.0066
G1 Y129.64159999999998 Z7.546339999999999
G1 Y132.18159999999997
G1 Y134.0866 Z7.45998
G1 Y135.3566 Z7.401559999999999
G1 Y135.9916 Z7.350759999999999
G1 Y136.62659999999997 Z7.26948
G1 Y137.2616 Z7.188199999999999
G1 Y139.1666 Z6.944359999999999
G1 Y139.80159999999998 Z6.83514
G1 Y140.4366 Z6.700519999999999
G1 Y142.3416 Z6.2992
G1 Y142.9766 Z6.16458
G1 Y143.61159999999998 Z5.981699999999999
G1 Y145.51659999999998 Z5.38734
G1 Y146.15159999999997 Z5.18922
G1 Y146.7866 Z4.9784
G1 Y148.6916 Z4.2138599999999995
G1 Y149.32659999999998 Z3.95986
G1 Y149.96159999999998 Z3.70332
G1 Y150.5966 Z3.4061399999999997
G1 Y151.8666 Z2.7813
G1 Y152.50159999999997 Z2.4688799999999995
G1 Y153.1366 Z2.15392
G1 Y153.7716 Z1.82372
G1 Y154.4066 Z1.45288
G1 Y155.0416 Z1.08204
G1 Y156.9466 Z-0.033019999999999994
G1 Y157.58159999999998 Z-0.0635
G1 Y157.80512
G1 F762 X122.81153999999998 Y158.75762
G1 F7620 Y158.2166
G1 Y157.58159999999998 Z0.2032
G1 Y155.67659999999998 Z1.31826
G1 Y155.0416 Z1.6891
G1 Y154.4066 Z2.04216
G1 Y152.50159999999997 Z2.98196
G1 Y151.8666 Z3.29438
G1 Y151.2316 Z3.6067999999999993
G1 Y150.5966 Z3.8684199999999995
G1 Y149.96159999999998 Z4.12496
G1 Y149.32659999999998 Z4.381499999999999
G1 Y148.05659999999997 Z4.8895
G1 Y147.4216 Z5.12064
G1 Y146.7866 Z5.31876
G1 Y146.15159999999997 Z5.519419999999999
G1 Y144.2466 Z6.113779999999999
G1 Y143.61159999999998 Z6.25856
G1 Y142.9766 Z6.400799999999999
G1 Y141.0716 Z6.824979999999999
G1 Y140.4366 Z6.941819999999999
G1 Y139.80159999999998 Z7.02564
G1 Y137.8966 Z7.26948
G1 Y137.2616 Z7.350759999999999
G1 Y136.62659999999997 Z7.401559999999999
G1 Y134.7216 Z7.48792
G1 Y134.0866 Z7.518399999999999
G1 Y133.45159999999998 Z7.5488800000000005
G1 Y128.3716
G1 Y127.7366 Z7.546339999999999
G1 Y126.4666
G1 Y125.83159999999998
G1 Y125.1966 Z7.541259999999999
G1 Y124.56159999999998 Z7.518399999999999
G1 Y123.92659999999998 Z7.49808
G1 Y122.0216 Z7.437119999999999
G1 Y121.38659999999999 Z7.401559999999999
G1 Y119.48159999999999 Z7.200899999999999
G1 Y118.8466 Z7.132319999999999
G1 Y117.57659999999998 Z7.00024
G1 Y116.9416 Z6.8961
G1 Y116.30659999999999 Z6.7818
G1 Y115.6716 Z6.6674999999999995
G1 Y113.7666 Z6.32968
G1 Y113.13159999999999 Z6.20522
G1 Y112.4966 Z6.0451999999999995
G1 Y111.22659999999998 Z5.7277
G1 Y110.5916 Z5.58038
G1 Y109.95659999999998 Z5.4356
G1 Y109.3216 Z5.29336
G1 Y108.6866 Z5.135879999999999
G1 Y106.1466 Z4.3942
G1 Y104.87659999999998 Z4.02336
G1 Y104.24159999999999 Z3.83794
G1 Y102.9716 Z3.38582
G1 Y99.79659999999998 Z2.25298
G1 Y99.16159999999999 Z1.99898
G1 Y98.52659999999999 Z1.7449799999999998
G1 Y95.9866 Z0.7493
G1 Y94.7166 Z0.25146
G1 Y94.0816 Z-0.0635
G1 Y93.74123999999999
G1 F762 X124.71654 Y95.84182
G1 F7620 Y96.62159999999999
G1 Y97.2566 Z0.3937
G1 Y97.8916 Z0.65024
G1 Y100.4316 Z1.7170399999999997
G1 Y101.0666 Z1.98374
G1 Y101.70159999999998 Z2.24028
G1 Y103.60659999999999 Z2.921
G1 Y106.1466 Z3.82524
G1 Y106.78159999999998 Z4.013199999999999
G1 Y107.4166 Z4.19862
G1 Y109.3216 Z4.75488
G1 Y109.95659999999998 Z4.95554
G1 Y110.5916 Z5.15874
G1 Y111.22659999999998 Z5.3263799999999994
G1 Y113.13159999999999 Z5.8039
G1 Y113.7666 Z5.961379999999999
G1 Y114.40159999999999 Z6.1213999999999995
G1 Y115.03659999999999 Z6.27126
G1 Y116.30659999999999 Z6.49732
G1 Y116.9416 Z6.60908
G1 Y118.8466 Z6.94944
G1 Y119.48159999999999 Z7.03072
G1 Y120.11659999999999 Z7.0993
G1 Y122.0216 Z7.29996
G1 Y122.65659999999998 Z7.36854
G1 Y123.2916 Z7.429499999999999
G1 Y125.83159999999998 Z7.518399999999999
G1 Y126.4666 Z7.541259999999999
G1 Y127.10159999999998 Z7.546339999999999
G1 Y127.7366 Z7.5488800000000005
G1 Y129.0066
G1 Y129.64159999999998
G1 Y134.7216
G1 Y135.3566 Z7.518399999999999
G1 Y137.2616 Z7.432040000000001
G1 Y137.8966 Z7.401559999999999
G1 Y138.5316 Z7.34568
G1 Y140.4366 Z7.086600000000001
G1 Y141.0716 Z7.00024
G1 Y141.70659999999998 Z6.91388
G1 Y142.3416 Z6.776719999999999
G1 Y143.61159999999998 Z6.4947799999999996
G1 Y144.2466 Z6.352539999999999
G1 Y144.8816 Z6.210299999999999
G1 Y145.51659999999998 Z6.0451999999999995
G1 Y146.7866 Z5.64896
G1 Y147.4216 Z5.45084
G1 Y148.6916 Z5.05206
G1 Y149.32659999999998 Z4.803139999999999
G1 Y149.96159999999998 Z4.5466
G1 Y151.8666 Z3.7795199999999993
G1 Y152.50159999999997 Z3.4975799999999997
G1 Y153.1366 Z3.18516
G1 Y155.0416 Z2.24282
G1 Y155.67659999999998 Z1.9278599999999997
G1 Y156.3116 Z1.5544799999999999
G1 Y156.9466 Z1.1683999999999999
G1 Y158.2166 Z0.38861999999999997
G1 Y158.8516 Z-0.00508
G1 Y159.48659999999998 Z-0.0635
G1 Y159.66948
G1 F762 X126.62154 Y160.54578
G1 F7620 Y160.1216
G1 Y159.48659999999998 Z0.10414
G1 Y158.8516 Z0.49783999999999995
G1 Y156.9466 Z1.67132
G1 Y156.3116 Z2.0446999999999997
G1 Y155.67659999999998 Z2.3749
G1 Y153.7716 Z3.3655
G1 Y153.1366 Z3.68554
G1 Y152.50159999999997 Z3.9446199999999996
G1 Y150.5966 Z4.714239999999999
G1 Y149.96159999999998 Z4.96824
G1 Y149.32659999999998 Z5.1815999999999995
G1 Y147.4216 Z5.7785
G1 Y146.7866 Z5.97662
G1 Y146.15159999999997 Z6.1594999999999995
G1 Y144.8816 Z6.4465200000000005
G1 Y144.2466 Z6.58876
G1 Y142.9766 Z6.87324
G1 Y142.3416 Z6.9723
G1 Y141.70659999999998 Z7.058659999999999
G1 Y141.0716 Z7.14502
G1 Y139.80159999999998 Z7.317740000000001
G1 Y139.1666 Z7.391399999999999
G1 Y138.5316 Z7.42188
G1 Y135.9916 Z7.546339999999999
G1 Y135.3566 Z7.5488800000000005
G1 Y129.0066
G1 Y128.3716
G1 Y127.7366 Z7.541259999999999
G1 Y126.4666 Z7.495539999999999
G1 Y124.56159999999998 Z7.429499999999999
G1 Y123.92659999999998 Z7.36854
G1 Y123.2916 Z7.29488
G1 Y120.75159999999998 Z7.00024
G1 Y120.11659999999999 Z6.891019999999999
G1 Y117.57659999999998 Z6.43636
G1 Y116.9416 Z6.324599999999999
G1 Y116.30659999999999 Z6.1975999999999996
G1 Y114.40159999999999 Z5.72008
G1 Y113.7666 Z5.56006
G1 Y112.4966 Z5.24256
G1 Y111.8616 Z5.05206
G1 Y111.22659999999998 Z4.8463199999999995
G1 Y110.5916 Z4.64312
G1 Y108.6866 Z4.02844
G1 Y108.05159999999998 Z3.82016
G1 Y107.4166 Z3.5864799999999994
G1 Y104.87659999999998 Z2.6822399999999997
G1 Y103.60659999999999 Z2.2275799999999997
G1 Y102.9716 Z1.9685
G1 Y101.70159999999998 Z1.4351
G1 Y101.0666 Z1.1683999999999999
G1 Y99.16159999999999 Z0.3683
G1 Y98.52659999999999 Z-0.0635
G1 Y97.88144
G1 F762 X128.52654 Y99.86518
G1 F7620 Y100.4316
G1 Y101.0666 Z0.35306
G1 Y102.33659999999999 Z0.889
G1 Y104.87659999999998 Z1.9557999999999998
G1 Y105.51159999999999 Z2.21488
G1 Y106.1466 Z2.4434799999999997
G1 Y106.78159999999998 Z2.68986
G1 Y108.6866 Z3.4391599999999998
G1 Y109.3216 Z3.68808
G1 Y109.95659999999998 Z3.92176
G1 Y111.8616 Z4.533899999999999
G1 Y113.7666 Z5.14858
G1 Y114.40159999999999 Z5.31876
G1 Y115.03659999999999 Z5.47624
G1 Y117.57659999999998 Z6.113779999999999
G1 Y118.21159999999999 Z6.26364
G1 Y118.8466 Z6.3881
G1 Y120.75159999999998 Z6.75894
G1 Y121.38659999999999 Z6.8834
G1 Y122.0216 Z7.00024
G1 Y123.92659999999998 Z7.21868
G1 Y125.1966 Z7.365999999999999
G1 Y125.83159999999998 Z7.429499999999999
G1 Y127.10159999999998 Z7.47268
G1 Y129.0066 Z7.53872
G1 Y129.64159999999998 Z7.5488800000000005
G1 Y134.7216
G1 Y135.3566
G1 Y136.62659999999997
G1 Y137.2616 Z7.53618
G1 Y138.5316 Z7.47268
G1 Y139.1666 Z7.442199999999999
G1 Y139.80159999999998 Z7.41172
G1 Y140.4366 Z7.37362
G1 Y141.70659999999998 Z7.2034400000000005
G1 Y142.3416 Z7.11454
G1 Y143.61159999999998 Z6.941819999999999
G1 Y144.2466 Z6.824979999999999
G1 Y144.8816 Z6.68274
G1 Y146.7866 Z6.25348
G1 Y147.4216 Z6.1087
G1 Y148.05659999999997 Z5.9105799999999995
G1 Y149.32659999999998 Z5.5118
G1 Y149.96159999999998 Z5.30352
G1 Y150.5966 Z5.0952399999999995
G1 Y151.2316 Z4.841239999999999
G1 Y153.1366 Z4.033519999999999
G1 Y153.7716 Z3.76428
G1 Y154.4066 Z3.4594799999999997
G1 Y156.3116 Z2.4714199999999997
G1 Y156.9466 Z2.13868
G1 Y157.58159999999998 Z1.7830799999999998
G1 Y158.8516 Z1.0007599999999999
G1 Y159.48659999999998 Z0.60706
G1 Y160.1216 Z0.21335999999999997
G1 Y160.7566 Z-0.0635
G1 Y161.38144
G1 F762 X130.43154 Y162.18154
G1 F7620 Y161.39159999999998
G1 Y160.7566 Z0.32258
G1 Y159.48659999999998 Z1.10998
G1 Y158.8516 Z1.50114
G1 Y158.2166 Z1.8922999999999999
G1 Y157.58159999999998 Z2.23266
G1 Y156.9466 Z2.5654
G1 Y156.3116 Z2.8956
G1 Y155.0416 Z3.556
G1 Y154.4066 Z3.8430199999999997
G1 Y153.7716 Z4.112259999999999
G1 Y153.1366 Z4.38404
G1 Y151.8666 Z4.92252
G1 Y151.2316 Z5.1562
G1 Y150.5966 Z5.367019999999999
G1 Y148.6916 Z5.9969399999999995
G1 Y148.05659999999997 Z6.18236
G1 Y147.4216 Z6.3322199999999995
G1 Y146.15159999999997 Z6.631939999999999
G1 Y145.51659999999998 Z6.776719999999999
G1 Y144.8816 Z6.91388
G1 Y142.3416 Z7.25932
G1 Y141.70659999999998 Z7.34568
G1 Y141.0716 Z7.401559999999999
G1 Y139.1666 Z7.495539999999999
G1 Y138.5316 Z7.52602
G1 Y137.8966 Z7.556499999999999
G1 Y132.8166
G1 Y132.18159999999997 Z7.5488800000000005
G1 Y130.9116
G1 Y130.27659999999997 Z7.541259999999999
G1 Y129.64159999999998 Z7.518399999999999
G1 Y127.7366 Z7.44982
G1 Y127.10159999999998 Z7.426959999999999
G1 Y126.4666 Z7.363459999999999
G1 Y124.56159999999998 Z7.14248
G1 Y123.2916 Z6.9977
G1 Y122.65659999999998 Z6.880859999999999
G1 Y122.0216 Z6.7564
G1 Y121.38659999999999 Z6.631939999999999
G1 Y119.48159999999999 Z6.2611
G1 Y118.8466 Z6.093459999999999
G1 Y118.21159999999999 Z5.9182
G1 Y116.30659999999999 Z5.39496
G1 Y115.6716 Z5.23494
G1 Y115.03659999999999 Z5.0419
G1 Y112.4966 Z4.22148
G1 Y111.8616 Z4.01828
G1 Y111.22659999999998 Z3.80746
G1 Y109.3216 Z3.0581599999999995
G1 Y107.4166 Z2.3088599999999997
G1 Y106.78159999999998 Z2.03454
G1 Y106.1466 Z1.7399
G1 Y104.87659999999998 Z1.15062
G1 Y104.24159999999999 Z0.87376
G1 Y103.60659999999999 Z0.60706
G1 Y102.9716 Z0.34036
G1 Y102.33659999999999 Z-0.0635
G1 Y101.79303999999999
G1 F762 X132.33653999999999 Y103.66756000000001
G1 F7620 Y104.24159999999999
G1 Y104.87659999999998 Z0.4064
G1 Y106.78159999999998 Z1.29032
G1 Y107.4166 Z1.58496
G1 Y108.6866 Z2.1742399999999997
G1 Y109.3216 Z2.4257
G1 Y109.95659999999998 Z2.6771599999999998
G1 Y112.4966 Z3.6753799999999996
G1 Y113.13159999999999 Z3.90906
G1 Y113.7666 Z4.1148
G1 Y114.40159999999999 Z4.32562
G1 Y116.30659999999999 Z4.99618
G1 Y116.9416 Z5.21462
G1 Y118.8466 Z5.7378599999999995
G1 Y119.48159999999999 Z5.91312
G1 Y120.11659999999999 Z6.08584
G1 Y120.75159999999998 Z6.2560199999999995
G1 Y122.0216 Z6.5049399999999995
G1 Y123.92659999999998 Z6.87578
G1 Y124.56159999999998 Z6.995159999999999
G1 Y125.1966 Z7.06882
G1 Y127.10159999999998 Z7.287259999999999
G1 Y127.7366 Z7.365999999999999
G1 Y128.3716 Z7.429499999999999
G1 Y130.9116 Z7.52348
G1 Y131.5466 Z7.5488800000000005
G1 Y132.18159999999997 Z7.556499999999999
G1 Y138.5316
G1 Y139.1666 Z7.546339999999999
G1 Y139.80159999999998 Z7.515859999999999
G1 Y142.3416 Z7.391399999999999
G1 Y142.9766 Z7.315199999999999
G1 Y144.8816 Z7.04088
G1 Y145.51659999999998 Z6.94944
G1 Y146.15159999999997 Z6.830059999999999
G1 Y148.05659999999997 Z6.37794
G1 Y148.6916 Z6.228079999999999
G1 Y149.32659999999998 Z6.06044
G1 Y150.5966 Z5.6388
G1 Y151.2316 Z5.43052
G1 Y151.8666 Z5.2197
G1 Y152.50159999999997 Z5.001259999999999
G1 Y153.7716 Z4.4627799999999995
G1 Y154.4066 Z4.191
G1 Y155.67659999999998 Z3.64998
G1 Y156.3116 Z3.32232
G1 Y156.9466 Z2.99212
G1 Y158.8516 Z1.9939
G1 Y159.48659999999998 Z1.6129
G1 Y160.1216 Z1.2192
G1 Y162.02659999999997 Z0.0381
G1 Y162.6616 Z-0.0635
G1 Y162.94607999999997
G1 F762 X134.24154 Y163.67252
G1 F7620 Y163.29659999999998
G1 Y162.6616 Z0.14223999999999998
G1 Y162.02659999999997 Z0.54102
G1 Y160.1216 Z1.7221199999999999
G1 Y159.48659999999998 Z2.0878799999999997
G1 Y157.58159999999998 Z3.0860999999999996
G1 Y156.9466 Z3.4163
G1 Y156.3116 Z3.72872
G1 Y154.4066 Z4.541519999999999
G1 Y153.7716 Z4.81076
G1 Y153.1366 Z5.06984
G1 Y151.8666 Z5.49148
G1 Y151.2316 Z5.7023
G1 Y150.5966 Z5.91312
G1 Y149.96159999999998 Z6.1213999999999995
G1 Y148.6916 Z6.42366
G1 Y148.05659999999997 Z6.573519999999999
G1 Y146.7866 Z6.87578
G1 Y146.15159999999997 Z6.977379999999999
G1 Y145.51659999999998 Z7.071359999999999
G1 Y143.61159999999998 Z7.34314
G1 Y142.9766 Z7.401559999999999
G1 Y142.3416 Z7.43458
G1 Y140.4366 Z7.533639999999999
G1 Y139.80159999999998 Z7.5488800000000005
G1 Y138.5316
G1 Y137.8966 Z7.556499999999999
G1 Y132.8166
G1 Y131.5466 Z7.508239999999999
G1 Y130.9116 Z7.48538
G1 Y129.64159999999998 Z7.437119999999999
G1 Y129.0066 Z7.388859999999999
G1 Y128.3716 Z7.312659999999999
G1 Y125.83159999999998 Z7.00024
G1 Y125.1966 Z6.8783199999999995
G1 Y124.56159999999998 Z6.748779999999999
G1 Y122.65659999999998 Z6.3754
G1 Y122.0216 Z6.25094
G1 Y121.38659999999999 Z6.08076
G1 Y120.11659999999999 Z5.73278
G1 Y119.48159999999999 Z5.557519999999999
G1 Y118.21159999999999 Z5.20954
G1 Y117.57659999999998 Z4.98856
G1 Y116.9416 Z4.765039999999999
G1 Y116.30659999999999 Z4.541519999999999
G1 Y114.40159999999999 Z3.8684199999999995
G1 Y113.7666 Z3.6017200000000003
G1 Y112.4966 Z3.05308
G1 Y111.8616 Z2.794
G1 Y110.5916 Z2.29362
G1 Y109.95659999999998 Z2.0193
G1 Y108.05159999999998 Z1.1353799999999998
G1 Y107.4166 Z0.8407399999999999
G1 Y106.1466 Z0.25146
G1 Y105.51159999999999 Z-0.0635
G1 Y105.38713999999999
G1 F762 X136.14654 Y106.98734
G1 F7620 Y107.4166
G1 Y108.05159999999998 Z0.39116
G1 Y108.6866 Z0.6858
G1 Y109.95659999999998 Z1.27508
G1 Y110.5916 Z1.58242
G1 Y111.22659999999998 Z1.9075399999999998
G1 Y111.8616 Z2.2224999999999997
G1 Y114.40159999999999 Z3.3172399999999995
G1 Y115.03659999999999 Z3.59156
G1 Y115.6716 Z3.8608
G1 Y116.9416 Z4.310379999999999
G1 Y117.57659999999998 Z4.533899999999999
G1 Y118.8466 Z4.9809399999999995
G1 Y119.48159999999999 Z5.20446
G1 Y120.11659999999999 Z5.37718
G1 Y122.0216 Z5.9004199999999996
G1 Y122.65659999999998 Z6.0832999999999995
G1 Y123.2916 Z6.2611
G1 Y125.83159999999998 Z6.786879999999999
G1 Y126.4666 Z6.918959999999999
G1 Y127.10159999999998 Z7.02564
G1 Y128.3716 Z7.18058
G1 Y129.0066 Z7.25932
G1 Y130.27659999999997 Z7.41426
G1 Y130.9116 Z7.44474
G1 Y131.5466 Z7.467599999999999
G1 Y133.45159999999998 Z7.53872
G1 Y134.0866 Z7.5488800000000005
G1 Y140.4366
G1 Y141.0716 Z7.543799999999999
G1 Y142.9766 Z7.44474
G1 Y143.61159999999998 Z7.41172
G1 Y144.2466 Z7.37362
G1 Y145.51659999999998 Z7.19074
G1 Y146.15159999999997 Z7.0993
G1 Y147.4216 Z6.91388
G1 Y148.05659999999997 Z6.77164
G1 Y148.6916 Z6.621779999999999
G1 Y150.5966 Z6.16712
G1 Y151.2316 Z5.97662
G1 Y151.8666 Z5.7658
G1 Y153.7716 Z5.13334
G1 Y154.4066 Z4.89204
G1 Y155.0416 Z4.62026
G1 Y156.9466 Z3.80746
G1 Y157.58159999999998 Z3.5102799999999994
G1 Y160.1216 Z2.1259799999999998
G1 Y160.7566 Z1.74752
G1 Y161.39159999999998 Z1.3385799999999999
G1 Y162.02659999999997 Z0.9347199999999999
G1 Y162.6616 Z0.54102
G1 Y163.29659999999998 Z0.14223999999999998
G1 Y163.93159999999997 Z-0.0635
G1 Y164.36594
G1 F762 X138.05154 Y165.02633999999998
G1 F7620 Y164.5666
G1 Y163.93159999999997 Z0.10667999999999998
G1 Y163.29659999999998 Z0.51816
G1 Y161.39159999999998 Z1.74752
G1 Y160.7566 Z2.1259799999999998
G1 Y158.2166 Z3.5102799999999994
G1 Y157.58159999999998 Z3.80746
G1 Y156.9466 Z4.0792399999999995
G1 Y155.0416 Z4.93014
G1 Y154.4066 Z5.173979999999999
G1 Y153.1366 Z5.6133999999999995
G1 Y152.50159999999997 Z5.826759999999999
G1 Y151.8666 Z6.037579999999999
G1 Y151.2316 Z6.21284
G1 Y149.32659999999998 Z6.66496
G1 Y148.6916 Z6.817360000000001
G1 Y148.05659999999997 Z6.941819999999999
G1 Y146.15159999999997 Z7.21868
G1 Y145.51659999999998 Z7.3101199999999995
G1 Y144.8816 Z7.388859999999999
G1 Y142.9766 Z7.48792
G1 Y141.70659999999998 Z7.553959999999999
G1 Y136.62659999999997
G1 Y135.9916 Z7.5488800000000005
G1 Y134.7216
G1 Y134.0866 Z7.52348
G1 Y132.18159999999997 Z7.45236
G1 Y131.5466 Z7.429499999999999
G1 Y130.9116 Z7.363459999999999
G1 Y129.0066 Z7.12724
G1 Y128.3716 Z7.0510399999999995
G1 Y127.7366 Z6.96214
G1 Y126.4666 Z6.697979999999999
G1 Y125.83159999999998 Z6.5659
G1 Y124.56159999999998 Z6.30174
G1 Y123.92659999999998 Z6.141719999999999
G1 Y123.2916 Z5.9563
G1 Y120.75159999999998 Z5.21462
G1 Y120.11659999999999 Z4.9809399999999995
G1 Y119.48159999999999 Z4.7498
G1 Y117.57659999999998 Z4.0767
G1 Y116.9416 Z3.8531799999999996
G1 Y116.30659999999999 Z3.5813999999999995
G1 Y114.40159999999999 Z2.76098
G1 Y113.13159999999999 Z2.2123399999999998
G1 Y112.4966 Z1.8948399999999999
G1 Y111.8616 Z1.5722599999999998
G1 Y111.22659999999998 Z1.24968
G1 Y109.3216 Z0.28194
G1 Y108.6866 Z-0.0635
G1 Y108.47577999999999
G1 F762 X139.95654 Y109.86262
G1 F7620 Y109.95659999999998
G1 Y110.5916 Z0.26924
G1 Y111.8616 Z0.91694
G1 Y112.4966 Z1.23952
G1 Y113.7666 Z1.88468
G1 Y114.40159999999999 Z2.20472
G1 Y115.03659999999999 Z2.47904
G1 Y116.9416 Z3.2994599999999994
G1 Y117.57659999999998 Z3.5788599999999997
G1 Y118.21159999999999 Z3.8658799999999998
G1 Y120.75159999999998 Z4.81838
G1 Y121.38659999999999 Z5.0571399999999995
G1 Y122.0216 Z5.27304
G1 Y123.2916 Z5.64388
G1 Y123.92659999999998 Z5.8293
G1 Y125.1966 Z6.20014
G1 Y125.83159999999998 Z6.344919999999999
G1 Y126.4666 Z6.476999999999999
G1 Y128.3716 Z6.87324
G1 Y129.0066 Z6.9977
G1 Y129.64159999999998 Z7.07644
G1 Y130.9116 Z7.23138
G1 Y131.5466 Z7.312659999999999
G1 Y132.18159999999997 Z7.393940000000001
G1 Y132.8166 Z7.439659999999999
G1 Y134.7216 Z7.515859999999999
G1 Y135.3566 Z7.541259999999999
G1 Y135.9916 Z7.553959999999999
G1 Y142.3416
G1 Y142.9766 Z7.5310999999999995
G1 Y143.61159999999998 Z7.49808
G1 Y145.51659999999998 Z7.399019999999999
G1 Y146.15159999999997 Z7.33806
G1 Y148.05659999999997 Z7.06374
G1 Y148.6916 Z6.969759999999999
G1 Y149.32659999999998 Z6.8503799999999995
G1 Y151.2316 Z6.37794
G1 Y151.8666 Z6.22046
G1 Y152.50159999999997 Z6.04012
G1 Y153.1366 Z5.826759999999999
G1 Y153.7716 Z5.6133999999999995
G1 Y155.0416 Z5.173979999999999
G1 Y155.67659999999998 Z4.93014
G1 Y157.58159999999998 Z4.0792399999999995
G1 Y158.2166 Z3.7972999999999995
G1 Y158.8516 Z3.4848799999999995
G1 Y160.7566 Z2.44602
G1 Y161.39159999999998 Z2.09804
G1 Y162.02659999999997 Z1.7145
G1 Y163.29659999999998 Z0.89408
G1 Y163.93159999999997 Z0.48513999999999996
G1 Y164.5666 Z0.07111999999999999
G1 Y165.20159999999998 Z-0.0635
G1 Y165.65117999999998
G1 F762 X141.86154 Y166.243
G1 F7620 Y165.83659999999998
G1 Y165.20159999999998 Z0.035559999999999994
G1 Y163.93159999999997 Z0.8610599999999999
G1 Y163.29659999999998 Z1.27254
G1 Y162.6616 Z1.6814799999999999
G1 Y162.02659999999997 Z2.0701
G1 Y161.39159999999998 Z2.4180800000000002
G1 Y160.7566 Z2.76606
G1 Y159.48659999999998 Z3.4594799999999997
G1 Y158.8516 Z3.7744400000000002
G1 Y158.2166 Z4.061459999999999
G1 Y157.58159999999998 Z4.3434
G1 Y156.3116 Z4.90982
G1 Y155.67659999999998 Z5.15874
G1 Y155.0416 Z5.37972
G1 Y153.1366 Z6.04012
G1 Y152.50159999999997 Z6.22046
G1 Y151.8666 Z6.37794
G1 Y149.96159999999998 Z6.8503799999999995
G1 Y149.32659999999998 Z6.969759999999999
G1 Y148.6916 Z7.06374
G1 Y148.05659999999997 Z7.15518
G1 Y146.7866 Z7.34568
G1 Y146.15159999999997 Z7.404099999999999
G1 Y144.2466 Z7.508239999999999
G1 Y143.61159999999998 Z7.541259999999999
G1 Y142.9766 Z7.5488800000000005
G1 Y142.3416
G1 Y141.70659999999998 Z7.553959999999999
G1 Y136.62659999999997
G1 Y135.9916 Z7.5310999999999995
G1 Y135.3566 Z7.508239999999999
G1 Y134.7216 Z7.482839999999999
G1 Y133.45159999999998 Z7.432040000000001
G1 Y132.8166 Z7.36854
G1 Y132.18159999999997 Z7.284719999999999
G1 Y130.27659999999997 Z7.03834
G1 Y129.64159999999998 Z6.9342
G1 Y129.0066 Z6.7945
G1 Y128.3716 Z6.6548
G1 Y127.7366 Z6.517639999999999
G1 Y127.10159999999998 Z6.38556
G1 Y126.4666 Z6.2560199999999995
G1 Y125.83159999999998 Z6.0731399999999995
G1 Y123.92659999999998 Z5.51688
G1 Y123.2916 Z5.33146
G1 Y122.65659999999998 Z5.13334
G1 Y121.38659999999999 Z4.655819999999999
G1 Y120.75159999999998 Z4.417059999999999
G1 Y119.48159999999999 Z3.9395399999999996
G1 Y118.8466 Z3.6702999999999997
G1 Y118.21159999999999 Z3.3782
G1 Y115.6716 Z2.21488
