; generated by Slic3r 1.3.0 on 2020-07-27 at 19:52:04

; external perimeters extrusion width = 0.55mm (4.37mm^3/s)
; perimeters extrusion width = 0.70mm (11.44mm^3/s)
; infill extrusion width = 0.62mm (13.45mm^3/s)
; solid infill extrusion width = 0.70mm (3.81mm^3/s)
; top infill extrusion width = 0.70mm (2.86mm^3/s)

M107
M104 S200 ; set temperature
G28 ; home all axes
G1 Z5 F5000 ; lift nozzle

; Filament gcode

M109 S200 ; set temperature and wait for it to be reached
G21 ; set units to millimeters
G90 ; use absolute coordinates
M82 ; use absolute distances for extrusion
G92 E0
G1 Z0.350 F7800.000
G1 E-2.00000 F2400.00000
G92 E0
G1 X90.210 Y90.915 F7800.000
G1 E2.00000 F2400.00000
G1 F1800
G1 X91.962 Y89.436 E2.07096
G1 X94.114 Y88.643 E2.14192
G1 X95.294 Y88.537 E2.17858
G1 X104.706 Y88.537 E2.46978
G1 X106.965 Y88.934 E2.54074
G1 X108.953 Y90.077 E2.61170
G1 X110.432 Y91.830 E2.68266
G1 X111.225 Y93.982 E2.75363
G1 X111.331 Y95.162 E2.79028
G1 X111.331 Y104.838 E3.08968
G1 X110.934 Y107.097 E3.16065
G1 X109.790 Y109.085 E3.23161
G1 X108.038 Y110.564 E3.30257
G1 X105.886 Y111.357 E3.37353
G1 X104.706 Y111.463 E3.41018
G1 X95.294 Y111.463 E3.70139
G1 X93.035 Y111.066 E3.77235
G1 X91.047 Y109.923 E3.84331
G1 X89.568 Y108.170 E3.91427
G1 X88.775 Y106.018 E3.98524
G1 X88.669 Y104.838 E4.02189
G1 X88.669 Y95.162 E4.32129
G1 X89.066 Y92.903 E4.39225
G1 X90.172 Y90.980 E4.46090
G1 E2.46090 F2400.00000
G92 E0
G1 X102.913 Y103.170 F7800.000
G1 E2.00000 F2400.00000
G1 F1800
G1 X97.309 Y103.170 E2.17341
G1 X97.309 Y97.831 E2.33862
G1 X102.913 Y97.831 E2.51203
G1 X102.913 Y103.095 E2.67492
G1 X103.046 Y103.652 F7800.000
G1 E0.67492 F2400.00000
G92 E0
G1 X96.684 Y97.206 F7800.000
G1 E2.00000 F2400.00000
G1 F1800
G1 X96.684 Y103.863 E2.20599
G1 X96.269 Y103.863 E2.21881
G1 X96.269 Y96.137 E2.45789
G1 X103.731 Y96.137 E2.68876
G1 X103.731 Y97.206 E2.72185
G1 X96.759 Y97.206 E2.93758
G1 E0.93758 F2400.00000
G92 E0
G1 X95.644 Y95.512 F7800.000
G1 E2.00000 F2400.00000
G1 F1800
G1 X104.356 Y95.512 E2.26954
G1 X104.356 Y104.488 E2.54729
G1 X95.644 Y104.488 E2.81683
G1 X95.644 Y95.587 E3.09226
G1 X96.127 Y95.644 F7800.000
G1 X96.582 Y96.671 F7800.000
G1 F1800
G1 X103.418 Y96.671 E3.21730
G1 X103.634 Y97.518 F7800.000
G1 F1800
G1 X103.634 Y103.483 E3.43662
G1 X103.616 Y103.606 E3.44121
G1 F1800
G1 X103.597 Y103.730 E3.44626
G1 X103.411 Y103.779 E3.45405
G1 F1800
G1 X103.226 Y103.829 E3.46088
G1 F1800
G1 X96.996 Y103.829 E3.65149
G1 Z0.650 F7800.000
G1 X97.384 Y97.906 F7800.000
G1 F900
G1 X102.838 Y97.906 E3.76391
G1 X102.838 Y103.095 E3.87087
G1 X97.384 Y103.095 E3.98329
G1 X97.384 Y97.981 E4.08870
G1 X97.250 Y97.424 F7800.000
G1 X96.823 Y97.345 F7800.000
G1 F3600
G1 X96.823 Y104.003 E4.26829
G1 X96.130 Y104.003 E4.28698
G1 X96.130 Y95.997 E4.50294
G1 X103.870 Y95.997 E4.71174
G1 X103.870 Y104.003 E4.92770
G1 X103.399 Y104.003 E4.94041
G1 X103.399 Y97.345 E5.12001
G1 X96.898 Y97.345 E5.29538
G1 X95.569 Y95.437 F7800.000
G1 F900
G1 X104.431 Y95.437 E5.47801
G1 X104.431 Y104.563 E5.66612
G1 X95.569 Y104.563 E5.84875
G1 X95.569 Y95.512 E6.03531
G1 X96.052 Y95.569 F7800.000
G1 X96.448 Y96.671 F7800.000
G1 F1200
G1 X103.552 Y96.671 E6.23067
G1 X103.118 Y103.829 F7800.000
G1 F1200
G1 X97.103 Y103.829 E6.44587
G1 Z0.950 F7800.000
G1 E4.44587 F2400.00000
G92 E0
G1 X97.384 Y97.906 F7800.000
G1 E2.00000 F2400.00000
G1 F900
G1 X102.838 Y97.906 E2.11242
G1 X102.838 Y103.095 E2.21938
G1 X97.384 Y103.095 E2.33180
G1 X97.384 Y97.981 E2.43721
G1 X97.250 Y97.424 F7800.000
G1 X96.823 Y97.345 F7800.000
G1 F3600
G1 X96.823 Y104.003 E2.61680
G1 X96.130 Y104.003 E2.63549
G1 X96.130 Y95.997 E2.85145
G1 X103.870 Y95.997 E3.06025
G1 X103.870 Y104.003 E3.27621
G1 X103.399 Y104.003 E3.28893
G1 X103.399 Y97.345 E3.46852
G1 X96.898 Y97.345 E3.64389
G1 E1.64389 F2400.00000
G92 E0
G1 X95.569 Y95.437 F7800.000
G1 E2.00000 F2400.00000
G1 F900
G1 X104.431 Y95.437 E2.18264
G1 X104.431 Y104.563 E2.37074
G1 X95.569 Y104.563 E2.55338
G1 X95.569 Y95.512 E2.73993
G1 X96.052 Y95.569 F7800.000
G1 X96.448 Y96.671 F7800.000
G1 F1200
G1 X103.552 Y96.671 E2.93530
G1 E0.93530 F2400.00000
G92 E0
G1 X103.118 Y103.829 F7800.000
G1 E2.00000 F2400.00000
G1 F1200
G1 X97.103 Y103.829 E2.21520
G1 E0.21520 F2400.00000
G92 E0
; Filament-specific end gcode 
;END gcode for filament

M104 S0 ; turn off temperature
G28 X0  ; home X axis
M84     ; disable motors

M140 S0 ; set bed temperature
; filament used = 11.3mm (0.1cm3)
; total filament cost = 0.0

; avoid_crossing_perimeters = 0
; bed_shape = 0x0,200x0,200x200,0x200
; bed_temperature = 0
; before_layer_gcode = 
; between_objects_gcode = 
; bridge_acceleration = 0
; bridge_fan_speed = 100
; brim_connections_width = 0
; brim_width = 0
; complete_objects = 0
; cooling = 1
; default_acceleration = 0
; disable_fan_first_layers = 3
; duplicate_distance = 6
; end_filament_gcode = "; Filament-specific end gcode \n;END gcode for filament\n"
; end_gcode = M104 S0 ; turn off temperature\nG28 X0  ; home X axis\nM84     ; disable motors\n
; extruder_clearance_height = 20
; extruder_clearance_radius = 20
; extruder_offset = 0x0
; extrusion_axis = E
; extrusion_multiplier = 1
; fan_always_on = 0
; fan_below_layer_time = 60
; filament_colour = #FFFFFF
; filament_cost = 0
; filament_density = 0
; filament_diameter = 3
; filament_max_volumetric_speed = 0
; filament_notes = ""
; first_layer_acceleration = 0
; first_layer_bed_temperature = 0
; first_layer_extrusion_width = 200%
; first_layer_speed = 30
; first_layer_temperature = 200
; gcode_arcs = 0
; gcode_comments = 0
; gcode_flavor = reprap
; has_heatbed = 1
; infill_acceleration = 0
; infill_first = 0
; interior_brim_width = 0
; layer_gcode = 
; max_fan_speed = 100
; max_layer_height = 0.3
; max_print_speed = 80
; max_volumetric_speed = 0
; min_fan_speed = 35
; min_layer_height = 0.15
; min_print_speed = 10
; min_skirt_length = 0
; notes = 
; nozzle_diameter = 0.5
; only_retract_when_crossing_perimeters = 1
; ooze_prevention = 0
; output_filename_format = [input_filename_base].gcode
; perimeter_acceleration = 0
; post_process = 
; pressure_advance = 0
; printer_notes = 
; resolution = 0
; retract_before_travel = 2
; retract_layer_change = 0
; retract_length = 2
; retract_length_toolchange = 10
; retract_lift = 0
; retract_lift_above = 0
; retract_lift_below = 0
; retract_restart_extra = 0
; retract_restart_extra_toolchange = 0
; retract_speed = 40
; skirt_distance = 6
; skirt_height = 1
; skirts = 1
; slowdown_below_layer_time = 5
; spiral_vase = 0
; standby_temperature_delta = -5
; start_filament_gcode = "; Filament gcode\n"
; start_gcode = G28 ; home all axes\nG1 Z5 F5000 ; lift nozzle\n
; temperature = 200
; threads = 1
; toolchange_gcode = 
; travel_speed = 130
; use_firmware_retraction = 0
; use_relative_e_distances = 0
; use_set_and_wait_bed = 0
; use_set_and_wait_extruder = 0
; use_volumetric_e = 0
; vibration_limit = 0
; wipe = 0
; z_offset = 0
; z_steps_per_mm = 0
; adaptive_slicing = 0
; adaptive_slicing_quality = 75%
; dont_support_bridges = 1
; extrusion_width = 0
; first_layer_height = 0.35
; infill_only_where_needed = 0
; interface_shells = 0
; layer_height = 0.3
; match_horizontal_surfaces = 0
; raft_layers = 0
; regions_overlap = 0
; seam_position = aligned
; sequential_print_priority = 0
; support_material = 0
; support_material_angle = 0
; support_material_buildplate_only = 0
; support_material_contact_distance = 0.2
; support_material_enforce_layers = 0
; support_material_extruder = 1
; support_material_extrusion_width = 0
; support_material_interface_extruder = 1
; support_material_interface_extrusion_width = 0
; support_material_interface_layers = 3
; support_material_interface_spacing = 0
; support_material_interface_speed = 100%
; support_material_max_layers = 0
; support_material_pattern = pillars
; support_material_spacing = 2.5
; support_material_speed = 60
; support_material_threshold = 60%
; xy_size_compensation = 0
; bottom_infill_pattern = rectilinear
; bottom_solid_layers = 3
; bridge_flow_ratio = 1
; bridge_speed = 60
; external_perimeter_extrusion_width = 0
; external_perimeter_speed = 50%
; external_perimeters_first = 0
; extra_perimeters = 1
; fill_angle = 45
; fill_density = 20%
; fill_gaps = 1
; fill_pattern = stars
; gap_fill_speed = 20
; infill_every_layers = 1
; infill_extruder = 1
; infill_extrusion_width = 0
; infill_overlap = 55%
; infill_speed = 80
; overhangs = 1
; perimeter_extruder = 1
; perimeter_extrusion_width = 0
; perimeter_speed = 60
; perimeters = 3
; small_perimeter_speed = 15
; solid_infill_below_area = 70
; solid_infill_every_layers = 0
; solid_infill_extruder = 1
; solid_infill_extrusion_width = 0
; solid_infill_speed = 20
; thin_walls = 1
; top_infill_extrusion_width = 0
; top_infill_pattern = rectilinear
; top_solid_infill_speed = 15
; top_solid_layers = 3
